(Cupcake ABS with heated build platform skeinforge profile)
(porch_post_railb)
(beginning of start.txt)
M104 S220 T0 (Extruder Temperature to 220 Celsius)
M109 S85 T0 (Heated Platform Temperature to 110 Celsius)
M106 (fan off)
G21 (Metric FTW)
G90 (Absolute Positioning)
G92 X0 Y0 Z0 (You are now at 0,0,0)
(You have failed me for the last time, MakerBot)
M108 S255.0
G1 X-0.1 Y20.26 Z0.19 F3300.0
M101
G1 X-44.05 Y20.26 Z0.19 F1100.0
G1 X-44.07 Y20.24 Z0.19 F1100.0
G1 X-44.07 Y20.21 Z0.19 F1100.0
G1 X-20.51 Y-3.35 Z0.19 F1100.0
G1 X-20.45 Y-3.51 Z0.19 F1100.0
G1 X-20.45 Y-20.16 Z0.19 F1100.0
G1 X-20.35 Y-20.26 Z0.19 F1100.0
G1 X44.37 Y-20.26 Z0.19 F1100.0
G1 X44.47 Y-20.16 Z0.19 F1100.0
G1 X44.47 Y20.16 Z0.19 F1100.0
G1 X44.37 Y20.26 Z0.19 F1100.0
G1 X0.19 Y20.26 Z0.19 F1100.0
G1 X0.16 Y20.18 Z0.19 F1100.0
M103
G1 X13.4 Y3.32 Z0.19 F3300.0
G1 X13.56 Y3.24 Z0.19 F3300.0
M101
G1 X15.96 Y3.24 Z0.19 F1100.0
G1 X16.12 Y3.18 Z0.19 F1100.0
G1 X17.89 Y1.41 Z0.19 F1100.0
G1 X17.95 Y1.25 Z0.19 F1100.0
G1 X17.95 Y-1.25 Z0.19 F1100.0
G1 X17.89 Y-1.41 Z0.19 F1100.0
G1 X16.12 Y-3.18 Z0.19 F1100.0
G1 X15.96 Y-3.24 Z0.19 F1100.0
G1 X13.46 Y-3.24 Z0.19 F1100.0
G1 X13.3 Y-3.18 Z0.19 F1100.0
G1 X11.53 Y-1.41 Z0.19 F1100.0
G1 X11.46 Y-1.25 Z0.19 F1100.0
G1 X11.46 Y1.25 Z0.19 F1100.0
G1 X11.53 Y1.41 Z0.19 F1100.0
G1 X13.23 Y3.11 Z0.19 F1100.0
G1 X13.29 Y3.27 Z0.19 F1100.0
M103
G1 X13.26 Y3.67 Z0.19 F3300.0
G1 X13.34 Y3.76 Z0.19 F3300.0
M101
G1 X16.17 Y3.76 Z0.19 F1100.0
G1 X16.33 Y3.69 Z0.19 F1100.0
G1 X18.4 Y1.63 Z0.19 F1100.0
G1 X18.47 Y1.46 Z0.19 F1100.0
G1 X18.47 Y-1.46 Z0.19 F1100.0
G1 X18.4 Y-1.63 Z0.19 F1100.0
G1 X16.33 Y-3.69 Z0.19 F1100.0
G1 X16.17 Y-3.76 Z0.19 F1100.0
G1 X13.25 Y-3.76 Z0.19 F1100.0
G1 X13.08 Y-3.69 Z0.19 F1100.0
G1 X11.02 Y-1.63 Z0.19 F1100.0
G1 X10.95 Y-1.46 Z0.19 F1100.0
G1 X10.95 Y1.46 Z0.19 F1100.0
G1 X11.02 Y1.63 Z0.19 F1100.0
G1 X13.02 Y3.62 Z0.19 F1100.0
G1 X13.08 Y3.79 Z0.19 F1100.0
M103
G1 X13.05 Y19.64 Z0.19 F3300.0
G1 X12.96 Y19.74 Z0.19 F3300.0
M101
G1 X-42.34 Y19.74 Z0.19 F1100.0
G1 X-42.47 Y19.65 Z0.19 F1100.0
G1 X-42.53 Y19.52 Z0.19 F1100.0
G1 X-42.5 Y19.36 Z0.19 F1100.0
G1 X-20.0 Y-3.13 Z0.19 F1100.0
G1 X-19.93 Y-3.3 Z0.19 F1100.0
G1 X-19.93 Y-19.64 Z0.19 F1100.0
G1 X-19.84 Y-19.74 Z0.19 F1100.0
G1 X43.85 Y-19.74 Z0.19 F1100.0
G1 X43.95 Y-19.64 Z0.19 F1100.0
G1 X43.95 Y19.64 Z0.19 F1100.0
G1 X43.85 Y19.74 Z0.19 F1100.0
G1 X13.34 Y19.74 Z0.19 F1100.0
G1 X13.2 Y19.66 Z0.19 F1100.0
M103
G1 X-9.17 Y-19.07 Z0.19 F3300.0
G1 X-9.3 Y-19.31 Z0.19 F1100.0
G1 X-9.11 Y-19.11 Z0.19 F1100.0
M101
G1 X10.45 Y0.45 Z0.19 F1100.0
G1 X10.52 Y0.42 Z0.19 F1100.0
G1 X10.52 Y-0.16 Z0.19 F1100.0
G1 X10.45 Y-0.32 Z0.19 F1100.0
G1 X-8.47 Y-19.24 Z0.19 F1100.0
G1 X-8.44 Y-19.31 Z0.19 F1100.0
G1 X-7.86 Y-19.31 Z0.19 F1100.0
G1 X-7.7 Y-19.24 Z0.19 F1100.0
G1 X10.45 Y-1.09 Z0.19 F1100.0
G1 X10.52 Y-1.12 Z0.19 F1100.0
G1 X10.54 Y-1.67 Z0.19 F1100.0
G1 X10.48 Y-1.83 Z0.19 F1100.0
G1 X-6.93 Y-19.24 Z0.19 F1100.0
G1 X-6.9 Y-19.31 Z0.19 F1100.0
G1 X-6.32 Y-19.31 Z0.19 F1100.0
G1 X-6.16 Y-19.24 Z0.19 F1100.0
G1 X10.86 Y-2.22 Z0.19 F1100.0
G1 X10.99 Y-2.22 Z0.19 F1100.0
G1 X11.25 Y-2.47 Z0.19 F1100.0
G1 X11.25 Y-2.6 Z0.19 F1100.0
G1 X-5.39 Y-19.24 Z0.19 F1100.0
G1 X-5.36 Y-19.31 Z0.19 F1100.0
G1 X-4.78 Y-19.31 Z0.19 F1100.0
G1 X-4.62 Y-19.24 Z0.19 F1100.0
G1 X11.63 Y-2.99 Z0.19 F1100.0
G1 X11.76 Y-2.99 Z0.19 F1100.0
G1 X12.02 Y-3.24 Z0.19 F1100.0
G1 X12.02 Y-3.37 Z0.19 F1100.0
G1 X-3.85 Y-19.24 Z0.19 F1100.0
G1 X-3.82 Y-19.31 Z0.19 F1100.0
G1 X-3.25 Y-19.31 Z0.19 F1100.0
G1 X-3.08 Y-19.24 Z0.19 F1100.0
G1 X12.4 Y-3.76 Z0.19 F1100.0
G1 X12.53 Y-3.76 Z0.19 F1100.0
G1 X12.78 Y-4.01 Z0.19 F1100.0
G1 X12.78 Y-4.14 Z0.19 F1100.0
G1 X-2.31 Y-19.24 Z0.19 F1100.0
G1 X-2.29 Y-19.31 Z0.19 F1100.0
G1 X-1.71 Y-19.31 Z0.19 F1100.0
G1 X-1.54 Y-19.24 Z0.19 F1100.0
G1 X13.43 Y-4.26 Z0.19 F1100.0
G1 X13.6 Y-4.19 Z0.19 F1100.0
G1 X14.18 Y-4.19 Z0.19 F1100.0
G1 X14.2 Y-4.26 Z0.19 F1100.0
G1 X-0.78 Y-19.24 Z0.19 F1100.0
G1 X-0.75 Y-19.31 Z0.19 F1100.0
G1 X-0.17 Y-19.31 Z0.19 F1100.0
G1 X-0.01 Y-19.24 Z0.19 F1100.0
G1 X14.97 Y-4.26 Z0.19 F1100.0
G1 X15.13 Y-4.19 Z0.19 F1100.0
G1 X15.71 Y-4.19 Z0.19 F1100.0
G1 X15.74 Y-4.26 Z0.19 F1100.0
G1 X0.76 Y-19.24 Z0.19 F1100.0
G1 X0.79 Y-19.31 Z0.19 F1100.0
M103
G1 X42.91 Y-19.31 Z0.19 F3300.0
G1 X43.08 Y-19.24 Z0.19 F3300.0
M101
G1 X43.45 Y-18.87 Z0.19 F1100.0
G1 X43.52 Y-18.71 Z0.19 F1100.0
G1 X43.52 Y-18.13 Z0.19 F1100.0
G1 X43.45 Y-18.1 Z0.19 F1100.0
G1 X42.31 Y-19.24 Z0.19 F1100.0
G1 X42.15 Y-19.31 Z0.19 F1100.0
G1 X41.57 Y-19.31 Z0.19 F1100.0
G1 X41.54 Y-19.24 Z0.19 F1100.0
G1 X43.45 Y-17.33 Z0.19 F1100.0
G1 X43.52 Y-17.17 Z0.19 F1100.0
G1 X43.52 Y-16.59 Z0.19 F1100.0
G1 X43.45 Y-16.56 Z0.19 F1100.0
G1 X40.77 Y-19.24 Z0.19 F1100.0
G1 X40.61 Y-19.31 Z0.19 F1100.0
G1 X40.03 Y-19.31 Z0.19 F1100.0
G1 X40.0 Y-19.24 Z0.19 F1100.0
G1 X43.45 Y-15.79 Z0.19 F1100.0
G1 X43.52 Y-15.63 Z0.19 F1100.0
G1 X43.52 Y-15.05 Z0.19 F1100.0
G1 X43.45 Y-15.02 Z0.19 F1100.0
G1 X39.23 Y-19.24 Z0.19 F1100.0
G1 X39.07 Y-19.31 Z0.19 F1100.0
G1 X38.49 Y-19.31 Z0.19 F1100.0
G1 X38.46 Y-19.24 Z0.19 F1100.0
G1 X43.45 Y-14.25 Z0.19 F1100.0
G1 X43.52 Y-14.09 Z0.19 F1100.0
G1 X43.52 Y-13.51 Z0.19 F1100.0
G1 X43.45 Y-13.48 Z0.19 F1100.0
G1 X37.69 Y-19.24 Z0.19 F1100.0
G1 X37.53 Y-19.31 Z0.19 F1100.0
G1 X36.95 Y-19.31 Z0.19 F1100.0
G1 X36.92 Y-19.24 Z0.19 F1100.0
G1 X43.45 Y-12.71 Z0.19 F1100.0
G1 X43.52 Y-12.55 Z0.19 F1100.0
G1 X43.52 Y-11.97 Z0.19 F1100.0
G1 X43.45 Y-11.94 Z0.19 F1100.0
G1 X36.15 Y-19.24 Z0.19 F1100.0
G1 X35.99 Y-19.31 Z0.19 F1100.0
G1 X35.41 Y-19.31 Z0.19 F1100.0
G1 X35.38 Y-19.24 Z0.19 F1100.0
G1 X43.45 Y-11.18 Z0.19 F1100.0
G1 X43.52 Y-11.01 Z0.19 F1100.0
G1 X43.52 Y-10.43 Z0.19 F1100.0
G1 X43.45 Y-10.4 Z0.19 F1100.0
G1 X34.61 Y-19.24 Z0.19 F1100.0
G1 X34.45 Y-19.31 Z0.19 F1100.0
G1 X33.87 Y-19.31 Z0.19 F1100.0
G1 X33.84 Y-19.24 Z0.19 F1100.0
G1 X43.45 Y-9.64 Z0.19 F1100.0
G1 X43.52 Y-9.47 Z0.19 F1100.0
G1 X43.52 Y-8.89 Z0.19 F1100.0
G1 X43.45 Y-8.87 Z0.19 F1100.0
G1 X33.08 Y-19.24 Z0.19 F1100.0
G1 X32.91 Y-19.31 Z0.19 F1100.0
G1 X32.33 Y-19.31 Z0.19 F1100.0
G1 X32.31 Y-19.24 Z0.19 F1100.0
G1 X43.45 Y-8.1 Z0.19 F1100.0
G1 X43.52 Y-7.93 Z0.19 F1100.0
G1 X43.52 Y-7.36 Z0.19 F1100.0
G1 X43.45 Y-7.33 Z0.19 F1100.0
G1 X31.54 Y-19.24 Z0.19 F1100.0
G1 X31.38 Y-19.31 Z0.19 F1100.0
G1 X30.8 Y-19.31 Z0.19 F1100.0
G1 X30.77 Y-19.24 Z0.19 F1100.0
G1 X43.45 Y-6.56 Z0.19 F1100.0
G1 X43.52 Y-6.4 Z0.19 F1100.0
G1 X43.52 Y-5.82 Z0.19 F1100.0
G1 X43.45 Y-5.79 Z0.19 F1100.0
G1 X30.0 Y-19.24 Z0.19 F1100.0
G1 X29.84 Y-19.31 Z0.19 F1100.0
G1 X29.26 Y-19.31 Z0.19 F1100.0
G1 X29.23 Y-19.24 Z0.19 F1100.0
G1 X43.45 Y-5.02 Z0.19 F1100.0
G1 X43.52 Y-4.86 Z0.19 F1100.0
G1 X43.52 Y-4.28 Z0.19 F1100.0
G1 X43.45 Y-4.25 Z0.19 F1100.0
G1 X28.46 Y-19.24 Z0.19 F1100.0
G1 X28.3 Y-19.31 Z0.19 F1100.0
G1 X27.72 Y-19.31 Z0.19 F1100.0
G1 X27.69 Y-19.24 Z0.19 F1100.0
G1 X43.45 Y-3.48 Z0.19 F1100.0
G1 X43.52 Y-3.32 Z0.19 F1100.0
G1 X43.52 Y-2.74 Z0.19 F1100.0
G1 X43.45 Y-2.71 Z0.19 F1100.0
G1 X26.92 Y-19.24 Z0.19 F1100.0
G1 X26.76 Y-19.31 Z0.19 F1100.0
G1 X26.18 Y-19.31 Z0.19 F1100.0
G1 X26.15 Y-19.24 Z0.19 F1100.0
G1 X43.45 Y-1.94 Z0.19 F1100.0
G1 X43.52 Y-1.78 Z0.19 F1100.0
G1 X43.52 Y-1.2 Z0.19 F1100.0
G1 X43.45 Y-1.17 Z0.19 F1100.0
G1 X25.38 Y-19.24 Z0.19 F1100.0
G1 X25.22 Y-19.31 Z0.19 F1100.0
G1 X24.64 Y-19.31 Z0.19 F1100.0
G1 X24.61 Y-19.24 Z0.19 F1100.0
G1 X43.45 Y-0.4 Z0.19 F1100.0
G1 X43.52 Y-0.24 Z0.19 F1100.0
G1 X43.52 Y0.34 Z0.19 F1100.0
G1 X43.45 Y0.36 Z0.19 F1100.0
G1 X23.84 Y-19.24 Z0.19 F1100.0
G1 X23.68 Y-19.31 Z0.19 F1100.0
G1 X23.1 Y-19.31 Z0.19 F1100.0
G1 X23.07 Y-19.24 Z0.19 F1100.0
G1 X43.45 Y1.14 Z0.19 F1100.0
G1 X43.52 Y1.3 Z0.19 F1100.0
G1 X43.52 Y1.88 Z0.19 F1100.0
G1 X43.45 Y1.9 Z0.19 F1100.0
G1 X22.3 Y-19.24 Z0.19 F1100.0
G1 X22.14 Y-19.31 Z0.19 F1100.0
G1 X21.56 Y-19.31 Z0.19 F1100.0
G1 X21.54 Y-19.24 Z0.19 F1100.0
G1 X43.45 Y2.67 Z0.19 F1100.0
G1 X43.52 Y2.83 Z0.19 F1100.0
G1 X43.52 Y3.42 Z0.19 F1100.0
G1 X43.45 Y3.44 Z0.19 F1100.0
G1 X20.77 Y-19.24 Z0.19 F1100.0
G1 X20.6 Y-19.31 Z0.19 F1100.0
G1 X20.02 Y-19.31 Z0.19 F1100.0
G1 X20.0 Y-19.24 Z0.19 F1100.0
G1 X43.45 Y4.21 Z0.19 F1100.0
G1 X43.52 Y4.37 Z0.19 F1100.0
G1 X43.52 Y4.95 Z0.19 F1100.0
G1 X43.45 Y4.98 Z0.19 F1100.0
G1 X19.23 Y-19.24 Z0.19 F1100.0
G1 X19.07 Y-19.31 Z0.19 F1100.0
G1 X18.49 Y-19.31 Z0.19 F1100.0
G1 X18.46 Y-19.24 Z0.19 F1100.0
G1 X43.45 Y5.75 Z0.19 F1100.0
G1 X43.52 Y5.91 Z0.19 F1100.0
G1 X43.52 Y6.49 Z0.19 F1100.0
G1 X43.45 Y6.52 Z0.19 F1100.0
G1 X17.69 Y-19.24 Z0.19 F1100.0
G1 X17.53 Y-19.31 Z0.19 F1100.0
G1 X16.95 Y-19.31 Z0.19 F1100.0
G1 X16.92 Y-19.24 Z0.19 F1100.0
G1 X43.45 Y7.29 Z0.19 F1100.0
G1 X43.52 Y7.45 Z0.19 F1100.0
G1 X43.52 Y8.03 Z0.19 F1100.0
G1 X43.45 Y8.06 Z0.19 F1100.0
G1 X16.15 Y-19.24 Z0.19 F1100.0
G1 X15.99 Y-19.31 Z0.19 F1100.0
G1 X15.41 Y-19.31 Z0.19 F1100.0
G1 X15.38 Y-19.24 Z0.19 F1100.0
G1 X43.45 Y8.83 Z0.19 F1100.0
G1 X43.52 Y8.99 Z0.19 F1100.0
G1 X43.52 Y9.57 Z0.19 F1100.0
G1 X43.45 Y9.6 Z0.19 F1100.0
G1 X14.61 Y-19.24 Z0.19 F1100.0
G1 X14.45 Y-19.31 Z0.19 F1100.0
G1 X13.87 Y-19.31 Z0.19 F1100.0
G1 X13.84 Y-19.24 Z0.19 F1100.0
G1 X43.45 Y10.37 Z0.19 F1100.0
G1 X43.52 Y10.53 Z0.19 F1100.0
G1 X43.52 Y11.11 Z0.19 F1100.0
G1 X43.45 Y11.14 Z0.19 F1100.0
G1 X13.07 Y-19.24 Z0.19 F1100.0
G1 X12.91 Y-19.31 Z0.19 F1100.0
G1 X12.33 Y-19.31 Z0.19 F1100.0
G1 X12.3 Y-19.24 Z0.19 F1100.0
G1 X43.45 Y11.9 Z0.19 F1100.0
G1 X43.52 Y12.07 Z0.19 F1100.0
G1 X43.52 Y12.65 Z0.19 F1100.0
G1 X43.45 Y12.68 Z0.19 F1100.0
G1 X11.53 Y-19.24 Z0.19 F1100.0
G1 X11.37 Y-19.31 Z0.19 F1100.0
G1 X10.79 Y-19.31 Z0.19 F1100.0
G1 X10.77 Y-19.24 Z0.19 F1100.0
G1 X43.45 Y13.44 Z0.19 F1100.0
G1 X43.52 Y13.61 Z0.19 F1100.0
G1 X43.52 Y14.19 Z0.19 F1100.0
G1 X43.45 Y14.21 Z0.19 F1100.0
G1 X10.0 Y-19.24 Z0.19 F1100.0
G1 X9.83 Y-19.31 Z0.19 F1100.0
G1 X9.25 Y-19.31 Z0.19 F1100.0
G1 X9.23 Y-19.24 Z0.19 F1100.0
G1 X43.45 Y14.98 Z0.19 F1100.0
G1 X43.52 Y15.14 Z0.19 F1100.0
G1 X43.52 Y15.72 Z0.19 F1100.0
G1 X43.45 Y15.75 Z0.19 F1100.0
G1 X8.46 Y-19.24 Z0.19 F1100.0
G1 X8.29 Y-19.31 Z0.19 F1100.0
G1 X7.72 Y-19.31 Z0.19 F1100.0
G1 X7.69 Y-19.24 Z0.19 F1100.0
G1 X43.45 Y16.52 Z0.19 F1100.0
G1 X43.52 Y16.68 Z0.19 F1100.0
G1 X43.52 Y17.26 Z0.19 F1100.0
G1 X43.45 Y17.29 Z0.19 F1100.0
G1 X6.92 Y-19.24 Z0.19 F1100.0
G1 X6.76 Y-19.31 Z0.19 F1100.0
G1 X6.18 Y-19.31 Z0.19 F1100.0
G1 X6.15 Y-19.24 Z0.19 F1100.0
G1 X43.45 Y18.06 Z0.19 F1100.0
G1 X43.52 Y18.22 Z0.19 F1100.0
G1 X43.52 Y18.8 Z0.19 F1100.0
G1 X43.45 Y18.83 Z0.19 F1100.0
G1 X5.38 Y-19.24 Z0.19 F1100.0
G1 X5.22 Y-19.31 Z0.19 F1100.0
G1 X4.64 Y-19.31 Z0.19 F1100.0
G1 X4.61 Y-19.24 Z0.19 F1100.0
G1 X43.09 Y19.24 Z0.19 F1100.0
G1 X43.06 Y19.31 Z0.19 F1100.0
G1 X42.48 Y19.31 Z0.19 F1100.0
G1 X42.32 Y19.24 Z0.19 F1100.0
G1 X3.84 Y-19.24 Z0.19 F1100.0
G1 X3.68 Y-19.31 Z0.19 F1100.0
G1 X3.1 Y-19.31 Z0.19 F1100.0
G1 X3.07 Y-19.24 Z0.19 F1100.0
G1 X41.55 Y19.24 Z0.19 F1100.0
G1 X41.52 Y19.31 Z0.19 F1100.0
G1 X40.94 Y19.31 Z0.19 F1100.0
G1 X40.78 Y19.24 Z0.19 F1100.0
G1 X2.3 Y-19.24 Z0.19 F1100.0
G1 X2.14 Y-19.31 Z0.19 F1100.0
G1 X1.56 Y-19.31 Z0.19 F1100.0
G1 X1.53 Y-19.24 Z0.19 F1100.0
G1 X40.01 Y19.24 Z0.19 F1100.0
G1 X39.98 Y19.31 Z0.19 F1100.0
G1 X39.4 Y19.31 Z0.19 F1100.0
G1 X39.24 Y19.24 Z0.19 F1100.0
G1 X18.97 Y-1.03 Z0.19 F1100.0
G1 X18.9 Y-1.0 Z0.19 F1100.0
G1 X18.9 Y-0.42 Z0.19 F1100.0
G1 X18.97 Y-0.26 Z0.19 F1100.0
G1 X38.47 Y19.24 Z0.19 F1100.0
G1 X38.44 Y19.31 Z0.19 F1100.0
G1 X37.87 Y19.31 Z0.19 F1100.0
G1 X37.7 Y19.24 Z0.19 F1100.0
G1 X18.97 Y0.51 Z0.19 F1100.0
G1 X18.9 Y0.53 Z0.19 F1100.0
G1 X18.9 Y1.11 Z0.19 F1100.0
G1 X18.97 Y1.28 Z0.19 F1100.0
G1 X36.93 Y19.24 Z0.19 F1100.0
G1 X36.91 Y19.31 Z0.19 F1100.0
G1 X36.33 Y19.31 Z0.19 F1100.0
G1 X36.16 Y19.24 Z0.19 F1100.0
G1 X18.85 Y1.93 Z0.19 F1100.0
G1 X18.72 Y1.93 Z0.19 F1100.0
G1 X18.46 Y2.17 Z0.19 F1100.0
G1 X18.46 Y2.31 Z0.19 F1100.0
G1 X35.4 Y19.24 Z0.19 F1100.0
G1 X35.37 Y19.31 Z0.19 F1100.0
G1 X34.79 Y19.31 Z0.19 F1100.0
G1 X34.63 Y19.24 Z0.19 F1100.0
G1 X18.08 Y2.69 Z0.19 F1100.0
G1 X17.95 Y2.69 Z0.19 F1100.0
G1 X17.7 Y2.94 Z0.19 F1100.0
G1 X17.7 Y3.08 Z0.19 F1100.0
G1 X33.86 Y19.24 Z0.19 F1100.0
G1 X33.83 Y19.31 Z0.19 F1100.0
G1 X33.25 Y19.31 Z0.19 F1100.0
G1 X33.09 Y19.24 Z0.19 F1100.0
G1 X17.31 Y3.46 Z0.19 F1100.0
G1 X17.18 Y3.46 Z0.19 F1100.0
G1 X16.93 Y3.71 Z0.19 F1100.0
G1 X16.93 Y3.85 Z0.19 F1100.0
G1 X32.32 Y19.24 Z0.19 F1100.0
G1 X32.29 Y19.31 Z0.19 F1100.0
G1 X31.71 Y19.31 Z0.19 F1100.0
G1 X31.55 Y19.24 Z0.19 F1100.0
G1 X16.54 Y4.23 Z0.19 F1100.0
G1 X16.38 Y4.17 Z0.19 F1100.0
G1 X15.83 Y4.19 Z0.19 F1100.0
G1 X15.8 Y4.26 Z0.19 F1100.0
G1 X30.78 Y19.24 Z0.19 F1100.0
G1 X30.75 Y19.31 Z0.19 F1100.0
G1 X30.17 Y19.31 Z0.19 F1100.0
G1 X30.01 Y19.24 Z0.19 F1100.0
G1 X15.03 Y4.26 Z0.19 F1100.0
G1 X14.87 Y4.19 Z0.19 F1100.0
G1 X14.29 Y4.19 Z0.19 F1100.0
G1 X14.26 Y4.26 Z0.19 F1100.0
G1 X29.24 Y19.24 Z0.19 F1100.0
G1 X29.21 Y19.31 Z0.19 F1100.0
G1 X28.63 Y19.31 Z0.19 F1100.0
G1 X28.47 Y19.24 Z0.19 F1100.0
G1 X-10.01 Y-19.24 Z0.19 F1100.0
G1 X-10.17 Y-19.31 Z0.19 F1100.0
G1 X-10.75 Y-19.31 Z0.19 F1100.0
G1 X-10.78 Y-19.24 Z0.19 F1100.0
G1 X27.7 Y19.24 Z0.19 F1100.0
G1 X27.67 Y19.31 Z0.19 F1100.0
G1 X27.09 Y19.31 Z0.19 F1100.0
G1 X26.93 Y19.24 Z0.19 F1100.0
G1 X-11.55 Y-19.24 Z0.19 F1100.0
G1 X-11.71 Y-19.31 Z0.19 F1100.0
G1 X-12.29 Y-19.31 Z0.19 F1100.0
G1 X-12.31 Y-19.24 Z0.19 F1100.0
G1 X26.16 Y19.24 Z0.19 F1100.0
G1 X26.14 Y19.31 Z0.19 F1100.0
G1 X25.56 Y19.31 Z0.19 F1100.0
G1 X25.39 Y19.24 Z0.19 F1100.0
G1 X-13.08 Y-19.24 Z0.19 F1100.0
G1 X-13.25 Y-19.31 Z0.19 F1100.0
G1 X-13.83 Y-19.31 Z0.19 F1100.0
G1 X-13.85 Y-19.24 Z0.19 F1100.0
G1 X24.62 Y19.24 Z0.19 F1100.0
G1 X24.6 Y19.31 Z0.19 F1100.0
G1 X24.02 Y19.31 Z0.19 F1100.0
G1 X23.86 Y19.24 Z0.19 F1100.0
G1 X-14.62 Y-19.24 Z0.19 F1100.0
G1 X-14.79 Y-19.31 Z0.19 F1100.0
G1 X-15.36 Y-19.31 Z0.19 F1100.0
G1 X-15.39 Y-19.24 Z0.19 F1100.0
G1 X23.09 Y19.24 Z0.19 F1100.0
G1 X23.06 Y19.31 Z0.19 F1100.0
G1 X22.48 Y19.31 Z0.19 F1100.0
G1 X22.32 Y19.24 Z0.19 F1100.0
G1 X-16.16 Y-19.24 Z0.19 F1100.0
G1 X-16.32 Y-19.31 Z0.19 F1100.0
G1 X-16.9 Y-19.31 Z0.19 F1100.0
G1 X-16.93 Y-19.24 Z0.19 F1100.0
G1 X21.55 Y19.24 Z0.19 F1100.0
G1 X21.52 Y19.31 Z0.19 F1100.0
G1 X20.94 Y19.31 Z0.19 F1100.0
G1 X20.78 Y19.24 Z0.19 F1100.0
G1 X-17.7 Y-19.24 Z0.19 F1100.0
G1 X-17.86 Y-19.31 Z0.19 F1100.0
G1 X-18.44 Y-19.31 Z0.19 F1100.0
G1 X-18.47 Y-19.24 Z0.19 F1100.0
G1 X20.01 Y19.24 Z0.19 F1100.0
G1 X19.98 Y19.31 Z0.19 F1100.0
G1 X19.4 Y19.31 Z0.19 F1100.0
G1 X19.24 Y19.24 Z0.19 F1100.0
G1 X-19.24 Y-19.24 Z0.19 F1100.0
G1 X-19.34 Y-19.22 Z0.19 F1100.0
G1 X-19.47 Y-18.82 Z0.19 F1100.0
G1 X-19.43 Y-18.66 Z0.19 F1100.0
G1 X18.47 Y19.24 Z0.19 F1100.0
G1 X18.44 Y19.31 Z0.19 F1100.0
G1 X17.86 Y19.31 Z0.19 F1100.0
G1 X17.7 Y19.24 Z0.19 F1100.0
G1 X-19.43 Y-17.89 Z0.19 F1100.0
G1 X-19.5 Y-17.86 Z0.19 F1100.0
G1 X-19.5 Y-17.28 Z0.19 F1100.0
G1 X-19.43 Y-17.12 Z0.19 F1100.0
G1 X16.93 Y19.24 Z0.19 F1100.0
G1 X16.9 Y19.31 Z0.19 F1100.0
G1 X16.32 Y19.31 Z0.19 F1100.0
G1 X16.16 Y19.24 Z0.19 F1100.0
G1 X-19.43 Y-16.35 Z0.19 F1100.0
G1 X-19.5 Y-16.32 Z0.19 F1100.0
G1 X-19.5 Y-15.74 Z0.19 F1100.0
G1 X-19.43 Y-15.58 Z0.19 F1100.0
G1 X15.39 Y19.24 Z0.19 F1100.0
G1 X15.36 Y19.31 Z0.19 F1100.0
G1 X14.79 Y19.31 Z0.19 F1100.0
G1 X14.62 Y19.24 Z0.19 F1100.0
G1 X-19.43 Y-14.81 Z0.19 F1100.0
G1 X-19.5 Y-14.79 Z0.19 F1100.0
G1 X-19.5 Y-14.21 Z0.19 F1100.0
G1 X-19.43 Y-14.04 Z0.19 F1100.0
G1 X13.85 Y19.24 Z0.19 F1100.0
G1 X13.83 Y19.31 Z0.19 F1100.0
G1 X13.25 Y19.31 Z0.19 F1100.0
G1 X13.08 Y19.24 Z0.19 F1100.0
G1 X-19.43 Y-13.28 Z0.19 F1100.0
G1 X-19.5 Y-13.25 Z0.19 F1100.0
G1 X-19.5 Y-12.67 Z0.19 F1100.0
G1 X-19.43 Y-12.51 Z0.19 F1100.0
G1 X12.31 Y19.24 Z0.19 F1100.0
G1 X12.29 Y19.31 Z0.19 F1100.0
G1 X11.71 Y19.31 Z0.19 F1100.0
G1 X11.55 Y19.24 Z0.19 F1100.0
G1 X-19.43 Y-11.74 Z0.19 F1100.0
G1 X-19.5 Y-11.71 Z0.19 F1100.0
G1 X-19.5 Y-11.13 Z0.19 F1100.0
G1 X-19.43 Y-10.97 Z0.19 F1100.0
G1 X10.78 Y19.24 Z0.19 F1100.0
G1 X10.75 Y19.31 Z0.19 F1100.0
G1 X10.17 Y19.31 Z0.19 F1100.0
G1 X10.01 Y19.24 Z0.19 F1100.0
G1 X-19.43 Y-10.2 Z0.19 F1100.0
G1 X-19.5 Y-10.17 Z0.19 F1100.0
G1 X-19.5 Y-9.59 Z0.19 F1100.0
G1 X-19.43 Y-9.43 Z0.19 F1100.0
G1 X9.24 Y19.24 Z0.19 F1100.0
G1 X9.21 Y19.31 Z0.19 F1100.0
G1 X8.63 Y19.31 Z0.19 F1100.0
G1 X8.47 Y19.24 Z0.19 F1100.0
G1 X-19.43 Y-8.66 Z0.19 F1100.0
G1 X-19.5 Y-8.63 Z0.19 F1100.0
G1 X-19.5 Y-8.05 Z0.19 F1100.0
G1 X-19.43 Y-7.89 Z0.19 F1100.0
G1 X7.7 Y19.24 Z0.19 F1100.0
G1 X7.67 Y19.31 Z0.19 F1100.0
G1 X7.09 Y19.31 Z0.19 F1100.0
G1 X6.93 Y19.24 Z0.19 F1100.0
G1 X-19.43 Y-7.12 Z0.19 F1100.0
G1 X-19.5 Y-7.09 Z0.19 F1100.0
G1 X-19.5 Y-6.51 Z0.19 F1100.0
G1 X-19.43 Y-6.35 Z0.19 F1100.0
G1 X6.16 Y19.24 Z0.19 F1100.0
G1 X6.13 Y19.31 Z0.19 F1100.0
G1 X5.55 Y19.31 Z0.19 F1100.0
G1 X5.39 Y19.24 Z0.19 F1100.0
G1 X-19.43 Y-5.58 Z0.19 F1100.0
G1 X-19.5 Y-5.55 Z0.19 F1100.0
G1 X-19.5 Y-4.97 Z0.19 F1100.0
G1 X-19.43 Y-4.81 Z0.19 F1100.0
G1 X4.62 Y19.24 Z0.19 F1100.0
G1 X4.59 Y19.31 Z0.19 F1100.0
G1 X4.01 Y19.31 Z0.19 F1100.0
G1 X3.85 Y19.24 Z0.19 F1100.0
G1 X-19.43 Y-4.04 Z0.19 F1100.0
G1 X-19.5 Y-4.01 Z0.19 F1100.0
G1 X-19.5 Y-3.44 Z0.19 F1100.0
G1 X-19.43 Y-3.27 Z0.19 F1100.0
G1 X3.08 Y19.24 Z0.19 F1100.0
G1 X3.06 Y19.31 Z0.19 F1100.0
G1 X2.48 Y19.31 Z0.19 F1100.0
G1 X2.31 Y19.24 Z0.19 F1100.0
G1 X-19.66 Y-2.73 Z0.19 F1100.0
G1 X-19.79 Y-2.73 Z0.19 F1100.0
G1 X-20.04 Y-2.48 Z0.19 F1100.0
G1 X-20.04 Y-2.35 Z0.19 F1100.0
G1 X1.54 Y19.24 Z0.19 F1100.0
G1 X1.52 Y19.31 Z0.19 F1100.0
G1 X0.94 Y19.31 Z0.19 F1100.0
G1 X0.78 Y19.24 Z0.19 F1100.0
G1 X-20.43 Y-1.96 Z0.19 F1100.0
G1 X-20.56 Y-1.96 Z0.19 F1100.0
G1 X-20.81 Y-1.71 Z0.19 F1100.0
G1 X-20.81 Y-1.58 Z0.19 F1100.0
G1 X0.01 Y19.24 Z0.19 F1100.0
G1 X-0.02 Y19.31 Z0.19 F1100.0
G1 X-0.6 Y19.31 Z0.19 F1100.0
G1 X-0.76 Y19.24 Z0.19 F1100.0
G1 X-21.19 Y-1.19 Z0.19 F1100.0
G1 X-21.33 Y-1.19 Z0.19 F1100.0
G1 X-21.58 Y-0.94 Z0.19 F1100.0
G1 X-21.58 Y-0.81 Z0.19 F1100.0
G1 X-1.53 Y19.24 Z0.19 F1100.0
G1 X-1.56 Y19.31 Z0.19 F1100.0
G1 X-2.14 Y19.31 Z0.19 F1100.0
G1 X-2.3 Y19.24 Z0.19 F1100.0
G1 X-21.96 Y-0.42 Z0.19 F1100.0
G1 X-22.1 Y-0.42 Z0.19 F1100.0
G1 X-22.35 Y-0.17 Z0.19 F1100.0
G1 X-22.35 Y-0.04 Z0.19 F1100.0
G1 X-3.07 Y19.24 Z0.19 F1100.0
G1 X-3.1 Y19.31 Z0.19 F1100.0
G1 X-3.68 Y19.31 Z0.19 F1100.0
G1 X-3.84 Y19.24 Z0.19 F1100.0
G1 X-22.73 Y0.35 Z0.19 F1100.0
G1 X-22.87 Y0.35 Z0.19 F1100.0
G1 X-23.12 Y0.6 Z0.19 F1100.0
G1 X-23.12 Y0.73 Z0.19 F1100.0
G1 X-4.61 Y19.24 Z0.19 F1100.0
G1 X-4.64 Y19.31 Z0.19 F1100.0
G1 X-5.22 Y19.31 Z0.19 F1100.0
G1 X-5.38 Y19.24 Z0.19 F1100.0
G1 X-23.5 Y1.12 Z0.19 F1100.0
G1 X-23.64 Y1.12 Z0.19 F1100.0
G1 X-23.89 Y1.37 Z0.19 F1100.0
G1 X-23.89 Y1.5 Z0.19 F1100.0
G1 X-6.15 Y19.24 Z0.19 F1100.0
G1 X-6.18 Y19.31 Z0.19 F1100.0
G1 X-6.76 Y19.31 Z0.19 F1100.0
G1 X-6.92 Y19.24 Z0.19 F1100.0
G1 X-24.27 Y1.89 Z0.19 F1100.0
G1 X-24.41 Y1.89 Z0.19 F1100.0
G1 X-24.66 Y2.14 Z0.19 F1100.0
G1 X-24.66 Y2.27 Z0.19 F1100.0
G1 X-7.69 Y19.24 Z0.19 F1100.0
G1 X-7.72 Y19.31 Z0.19 F1100.0
G1 X-8.29 Y19.31 Z0.19 F1100.0
G1 X-8.46 Y19.24 Z0.19 F1100.0
G1 X-25.04 Y2.65 Z0.19 F1100.0
G1 X-25.18 Y2.65 Z0.19 F1100.0
G1 X-25.43 Y2.91 Z0.19 F1100.0
G1 X-25.43 Y3.04 Z0.19 F1100.0
G1 X-9.23 Y19.24 Z0.19 F1100.0
G1 X-9.25 Y19.31 Z0.19 F1100.0
G1 X-9.83 Y19.31 Z0.19 F1100.0
G1 X-10.0 Y19.24 Z0.19 F1100.0
G1 X-25.81 Y3.42 Z0.19 F1100.0
G1 X-25.94 Y3.42 Z0.19 F1100.0
G1 X-26.2 Y3.67 Z0.19 F1100.0
G1 X-26.2 Y3.81 Z0.19 F1100.0
G1 X-10.77 Y19.24 Z0.19 F1100.0
G1 X-10.79 Y19.31 Z0.19 F1100.0
G1 X-11.37 Y19.31 Z0.19 F1100.0
G1 X-11.53 Y19.24 Z0.19 F1100.0
G1 X-26.58 Y4.19 Z0.19 F1100.0
G1 X-26.71 Y4.19 Z0.19 F1100.0
G1 X-26.96 Y4.45 Z0.19 F1100.0
G1 X-26.96 Y4.58 Z0.19 F1100.0
G1 X-12.3 Y19.24 Z0.19 F1100.0
G1 X-12.33 Y19.31 Z0.19 F1100.0
G1 X-12.91 Y19.31 Z0.19 F1100.0
G1 X-13.07 Y19.24 Z0.19 F1100.0
G1 X-27.35 Y4.96 Z0.19 F1100.0
G1 X-27.48 Y4.96 Z0.19 F1100.0
G1 X-27.73 Y5.21 Z0.19 F1100.0
G1 X-27.73 Y5.35 Z0.19 F1100.0
G1 X-13.84 Y19.24 Z0.19 F1100.0
G1 X-13.87 Y19.31 Z0.19 F1100.0
G1 X-14.45 Y19.31 Z0.19 F1100.0
G1 X-14.61 Y19.24 Z0.19 F1100.0
G1 X-28.12 Y5.73 Z0.19 F1100.0
G1 X-28.25 Y5.73 Z0.19 F1100.0
G1 X-28.5 Y5.98 Z0.19 F1100.0
G1 X-28.5 Y6.12 Z0.19 F1100.0
G1 X-15.38 Y19.24 Z0.19 F1100.0
G1 X-15.41 Y19.31 Z0.19 F1100.0
G1 X-15.99 Y19.31 Z0.19 F1100.0
G1 X-16.15 Y19.24 Z0.19 F1100.0
G1 X-28.89 Y6.5 Z0.19 F1100.0
G1 X-29.02 Y6.5 Z0.19 F1100.0
G1 X-29.27 Y6.75 Z0.19 F1100.0
G1 X-29.27 Y6.89 Z0.19 F1100.0
G1 X-16.92 Y19.24 Z0.19 F1100.0
G1 X-16.95 Y19.31 Z0.19 F1100.0
G1 X-17.53 Y19.31 Z0.19 F1100.0
G1 X-17.69 Y19.24 Z0.19 F1100.0
G1 X-29.66 Y7.27 Z0.19 F1100.0
G1 X-29.79 Y7.27 Z0.19 F1100.0
G1 X-30.04 Y7.52 Z0.19 F1100.0
G1 X-30.04 Y7.66 Z0.19 F1100.0
G1 X-18.46 Y19.24 Z0.19 F1100.0
G1 X-18.49 Y19.31 Z0.19 F1100.0
G1 X-19.07 Y19.31 Z0.19 F1100.0
G1 X-19.23 Y19.24 Z0.19 F1100.0
G1 X-30.43 Y8.04 Z0.19 F1100.0
G1 X-30.56 Y8.04 Z0.19 F1100.0
G1 X-30.81 Y8.29 Z0.19 F1100.0
G1 X-30.81 Y8.43 Z0.19 F1100.0
G1 X-20.0 Y19.24 Z0.19 F1100.0
G1 X-20.02 Y19.31 Z0.19 F1100.0
G1 X-20.6 Y19.31 Z0.19 F1100.0
G1 X-20.77 Y19.24 Z0.19 F1100.0
G1 X-31.2 Y8.81 Z0.19 F1100.0
G1 X-31.33 Y8.81 Z0.19 F1100.0
G1 X-31.58 Y9.06 Z0.19 F1100.0
G1 X-31.58 Y9.19 Z0.19 F1100.0
G1 X-21.54 Y19.24 Z0.19 F1100.0
G1 X-21.56 Y19.31 Z0.19 F1100.0
G1 X-22.14 Y19.31 Z0.19 F1100.0
G1 X-22.3 Y19.24 Z0.19 F1100.0
G1 X-31.96 Y9.58 Z0.19 F1100.0
G1 X-32.1 Y9.58 Z0.19 F1100.0
G1 X-32.35 Y9.83 Z0.19 F1100.0
G1 X-32.35 Y9.96 Z0.19 F1100.0
G1 X-23.07 Y19.24 Z0.19 F1100.0
G1 X-23.1 Y19.31 Z0.19 F1100.0
G1 X-23.68 Y19.31 Z0.19 F1100.0
G1 X-23.84 Y19.24 Z0.19 F1100.0
G1 X-32.73 Y10.35 Z0.19 F1100.0
G1 X-32.87 Y10.35 Z0.19 F1100.0
G1 X-33.12 Y10.6 Z0.19 F1100.0
G1 X-33.12 Y10.73 Z0.19 F1100.0
G1 X-24.61 Y19.24 Z0.19 F1100.0
G1 X-24.64 Y19.31 Z0.19 F1100.0
G1 X-25.22 Y19.31 Z0.19 F1100.0
G1 X-25.38 Y19.24 Z0.19 F1100.0
G1 X-33.5 Y11.12 Z0.19 F1100.0
G1 X-33.64 Y11.12 Z0.19 F1100.0
G1 X-33.89 Y11.37 Z0.19 F1100.0
G1 X-33.89 Y11.5 Z0.19 F1100.0
G1 X-26.15 Y19.24 Z0.19 F1100.0
G1 X-26.18 Y19.31 Z0.19 F1100.0
G1 X-26.76 Y19.31 Z0.19 F1100.0
G1 X-26.92 Y19.24 Z0.19 F1100.0
G1 X-34.27 Y11.89 Z0.19 F1100.0
G1 X-34.41 Y11.89 Z0.19 F1100.0
G1 X-34.66 Y12.14 Z0.19 F1100.0
G1 X-34.66 Y12.27 Z0.19 F1100.0
G1 X-27.69 Y19.24 Z0.19 F1100.0
G1 X-27.72 Y19.31 Z0.19 F1100.0
G1 X-28.3 Y19.31 Z0.19 F1100.0
G1 X-28.46 Y19.24 Z0.19 F1100.0
G1 X-35.04 Y12.66 Z0.19 F1100.0
G1 X-35.18 Y12.66 Z0.19 F1100.0
G1 X-35.43 Y12.91 Z0.19 F1100.0
G1 X-35.43 Y13.04 Z0.19 F1100.0
G1 X-29.23 Y19.24 Z0.19 F1100.0
G1 X-29.26 Y19.31 Z0.19 F1100.0
G1 X-29.84 Y19.31 Z0.19 F1100.0
G1 X-30.0 Y19.24 Z0.19 F1100.0
G1 X-35.81 Y13.43 Z0.19 F1100.0
G1 X-35.95 Y13.43 Z0.19 F1100.0
G1 X-36.2 Y13.68 Z0.19 F1100.0
G1 X-36.2 Y13.81 Z0.19 F1100.0
G1 X-30.77 Y19.24 Z0.19 F1100.0
G1 X-30.8 Y19.31 Z0.19 F1100.0
G1 X-31.38 Y19.31 Z0.19 F1100.0
G1 X-31.54 Y19.24 Z0.19 F1100.0
G1 X-36.58 Y14.2 Z0.19 F1100.0
G1 X-36.72 Y14.2 Z0.19 F1100.0
G1 X-36.97 Y14.45 Z0.19 F1100.0
G1 X-36.97 Y14.58 Z0.19 F1100.0
G1 X-32.31 Y19.24 Z0.19 F1100.0
G1 X-32.33 Y19.31 Z0.19 F1100.0
G1 X-32.91 Y19.31 Z0.19 F1100.0
G1 X-33.08 Y19.24 Z0.19 F1100.0
G1 X-37.35 Y14.96 Z0.19 F1100.0
G1 X-37.48 Y14.96 Z0.19 F1100.0
G1 X-37.73 Y15.21 Z0.19 F1100.0
G1 X-37.73 Y15.35 Z0.19 F1100.0
G1 X-33.84 Y19.24 Z0.19 F1100.0
G1 X-33.87 Y19.31 Z0.19 F1100.0
G1 X-34.45 Y19.31 Z0.19 F1100.0
G1 X-34.61 Y19.24 Z0.19 F1100.0
G1 X-38.12 Y15.73 Z0.19 F1100.0
G1 X-38.25 Y15.73 Z0.19 F1100.0
G1 X-38.5 Y15.98 Z0.19 F1100.0
G1 X-38.5 Y16.12 Z0.19 F1100.0
G1 X-35.38 Y19.24 Z0.19 F1100.0
G1 X-35.41 Y19.31 Z0.19 F1100.0
G1 X-35.99 Y19.31 Z0.19 F1100.0
G1 X-36.15 Y19.24 Z0.19 F1100.0
G1 X-38.89 Y16.5 Z0.19 F1100.0
G1 X-39.02 Y16.5 Z0.19 F1100.0
G1 X-39.27 Y16.75 Z0.19 F1100.0
G1 X-39.27 Y16.89 Z0.19 F1100.0
G1 X-36.92 Y19.24 Z0.19 F1100.0
G1 X-36.95 Y19.31 Z0.19 F1100.0
G1 X-37.53 Y19.31 Z0.19 F1100.0
G1 X-37.69 Y19.24 Z0.19 F1100.0
G1 X-39.66 Y17.27 Z0.19 F1100.0
G1 X-39.79 Y17.27 Z0.19 F1100.0
G1 X-40.04 Y17.52 Z0.19 F1100.0
G1 X-40.04 Y17.66 Z0.19 F1100.0
G1 X-38.46 Y19.24 Z0.19 F1100.0
G1 X-38.49 Y19.31 Z0.19 F1100.0
G1 X-39.07 Y19.31 Z0.19 F1100.0
G1 X-39.23 Y19.24 Z0.19 F1100.0
G1 X-40.43 Y18.04 Z0.19 F1100.0
G1 X-40.56 Y18.04 Z0.19 F1100.0
G1 X-40.81 Y18.29 Z0.19 F1100.0
G1 X-40.81 Y18.43 Z0.19 F1100.0
G1 X-40.0 Y19.24 Z0.19 F1100.0
G1 X-40.03 Y19.31 Z0.19 F1100.0
G1 X-40.61 Y19.31 Z0.19 F1100.0
G1 X-40.77 Y19.24 Z0.19 F1100.0
G1 X-41.2 Y18.81 Z0.19 F1100.0
G1 X-41.33 Y18.81 Z0.19 F1100.0
G1 X-41.59 Y19.07 Z0.19 F1100.0
G1 X-41.59 Y19.19 Z0.19 F1100.0
G1 X-41.48 Y19.38 Z0.22 F1100.0
M103
G1 X-41.56 Y20.17 Z0.53 F3300.0
G1 X-41.66 Y20.26 Z0.56 F3300.0
M101
G1 X-44.05 Y20.26 Z0.56 F1830.0
G1 X-44.07 Y20.24 Z0.56 F1830.0
G1 X-44.07 Y20.21 Z0.56 F1830.0
G1 X-20.51 Y-3.35 Z0.56 F1830.0
G1 X-20.45 Y-3.51 Z0.56 F1830.0
G1 X-20.45 Y-20.16 Z0.56 F1830.0
G1 X-20.35 Y-20.26 Z0.56 F1830.0
G1 X44.37 Y-20.26 Z0.56 F1830.0
G1 X44.47 Y-20.16 Z0.56 F1830.0
G1 X44.47 Y20.16 Z0.56 F1830.0
G1 X44.37 Y20.26 Z0.56 F1830.0
G1 X-41.28 Y20.26 Z0.56 F1830.0
G1 X-41.28 Y20.22 Z0.56 F1830.0
M103
G1 X11.44 Y1.45 Z0.56 F3300.0
G1 X11.6 Y1.48 Z0.56 F3300.0
M101
G1 X13.3 Y3.18 Z0.56 F1830.0
G1 X13.46 Y3.24 Z0.56 F1830.0
G1 X15.96 Y3.24 Z0.56 F1830.0
G1 X16.12 Y3.18 Z0.56 F1830.0
G1 X17.89 Y1.41 Z0.56 F1830.0
G1 X17.95 Y1.25 Z0.56 F1830.0
G1 X17.95 Y-1.25 Z0.56 F1830.0
G1 X17.89 Y-1.41 Z0.56 F1830.0
G1 X16.12 Y-3.18 Z0.56 F1830.0
G1 X15.96 Y-3.24 Z0.56 F1830.0
G1 X13.46 Y-3.24 Z0.56 F1830.0
G1 X13.3 Y-3.18 Z0.56 F1830.0
G1 X11.53 Y-1.41 Z0.56 F1830.0
G1 X11.46 Y-1.25 Z0.56 F1830.0
G1 X11.46 Y1.15 Z0.56 F1830.0
G1 X11.39 Y1.31 Z0.56 F1830.0
M103
G1 X11.09 Y1.56 Z0.56 F3300.0
G1 X11.09 Y1.69 Z0.56 F3300.0
M101
G1 X13.08 Y3.69 Z0.56 F1830.0
G1 X13.25 Y3.76 Z0.56 F1830.0
G1 X16.17 Y3.76 Z0.56 F1830.0
G1 X16.33 Y3.69 Z0.56 F1830.0
G1 X18.4 Y1.63 Z0.56 F1830.0
G1 X18.47 Y1.46 Z0.56 F1830.0
G1 X18.47 Y-1.46 Z0.56 F1830.0
G1 X18.4 Y-1.63 Z0.56 F1830.0
G1 X16.33 Y-3.69 Z0.56 F1830.0
G1 X16.17 Y-3.76 Z0.56 F1830.0
G1 X13.25 Y-3.76 Z0.56 F1830.0
G1 X13.08 Y-3.69 Z0.56 F1830.0
G1 X11.02 Y-1.63 Z0.56 F1830.0
G1 X10.95 Y-1.46 Z0.56 F1830.0
G1 X10.95 Y1.36 Z0.56 F1830.0
G1 X10.95 Y1.55 Z0.56 F1830.0
M103
G1 X10.85 Y19.64 Z0.56 F3300.0
G1 X10.76 Y19.74 Z0.56 F3300.0
M101
G1 X-42.34 Y19.74 Z0.56 F1830.0
G1 X-42.47 Y19.65 Z0.56 F1830.0
G1 X-42.53 Y19.52 Z0.56 F1830.0
G1 X-42.5 Y19.36 Z0.56 F1830.0
G1 X-20.0 Y-3.13 Z0.56 F1830.0
G1 X-19.93 Y-3.3 Z0.56 F1830.0
G1 X-19.93 Y-19.64 Z0.56 F1830.0
G1 X-19.84 Y-19.74 Z0.56 F1830.0
G1 X43.85 Y-19.74 Z0.56 F1830.0
G1 X43.95 Y-19.64 Z0.56 F1830.0
G1 X43.95 Y19.64 Z0.56 F1830.0
G1 X43.85 Y19.74 Z0.56 F1830.0
G1 X11.14 Y19.74 Z0.56 F1830.0
G1 X11.06 Y19.65 Z0.56 F1830.0
M103
G1 X14.18 Y-4.1 Z0.56 F3300.0
G1 X14.26 Y-4.26 Z0.56 F3300.0
M101
G1 X29.24 Y-19.24 Z0.56 F1830.0
G1 X29.4 Y-19.31 Z0.56 F1830.0
G1 X29.98 Y-19.31 Z0.56 F1830.0
G1 X30.01 Y-19.24 Z0.56 F1830.0
G1 X15.03 Y-4.26 Z0.56 F1830.0
G1 X15.06 Y-4.19 Z0.56 F1830.0
G1 X15.64 Y-4.19 Z0.56 F1830.0
G1 X15.8 Y-4.26 Z0.56 F1830.0
G1 X30.78 Y-19.24 Z0.56 F1830.0
G1 X30.94 Y-19.31 Z0.56 F1830.0
G1 X31.52 Y-19.31 Z0.56 F1830.0
G1 X31.55 Y-19.24 Z0.56 F1830.0
G1 X16.54 Y-4.23 Z0.56 F1830.0
G1 X16.54 Y-4.1 Z0.56 F1830.0
G1 X16.79 Y-3.85 Z0.56 F1830.0
G1 X16.93 Y-3.85 Z0.56 F1830.0
G1 X32.32 Y-19.24 Z0.56 F1830.0
G1 X32.48 Y-19.31 Z0.56 F1830.0
G1 X33.06 Y-19.31 Z0.56 F1830.0
G1 X33.09 Y-19.24 Z0.56 F1830.0
G1 X17.31 Y-3.46 Z0.56 F1830.0
G1 X17.31 Y-3.33 Z0.56 F1830.0
G1 X17.56 Y-3.08 Z0.56 F1830.0
G1 X17.7 Y-3.08 Z0.56 F1830.0
G1 X33.86 Y-19.24 Z0.56 F1830.0
G1 X34.02 Y-19.31 Z0.56 F1830.0
G1 X34.6 Y-19.31 Z0.56 F1830.0
G1 X34.63 Y-19.24 Z0.56 F1830.0
G1 X18.08 Y-2.69 Z0.56 F1830.0
G1 X18.08 Y-2.56 Z0.56 F1830.0
G1 X18.33 Y-2.31 Z0.56 F1830.0
G1 X18.46 Y-2.31 Z0.56 F1830.0
G1 X35.4 Y-19.24 Z0.56 F1830.0
G1 X35.56 Y-19.31 Z0.56 F1830.0
G1 X36.14 Y-19.31 Z0.56 F1830.0
G1 X36.16 Y-19.24 Z0.56 F1830.0
G1 X18.85 Y-1.93 Z0.56 F1830.0
G1 X18.8 Y-1.76 Z0.56 F1830.0
G1 X18.89 Y-1.3 Z0.56 F1830.0
G1 X18.97 Y-1.28 Z0.56 F1830.0
G1 X36.93 Y-19.24 Z0.56 F1830.0
G1 X37.09 Y-19.31 Z0.56 F1830.0
G1 X37.67 Y-19.31 Z0.56 F1830.0
G1 X37.7 Y-19.24 Z0.56 F1830.0
G1 X18.97 Y-0.51 Z0.56 F1830.0
G1 X18.9 Y-0.34 Z0.56 F1830.0
G1 X18.9 Y0.23 Z0.56 F1830.0
G1 X18.97 Y0.26 Z0.56 F1830.0
G1 X38.47 Y-19.24 Z0.56 F1830.0
G1 X38.63 Y-19.31 Z0.56 F1830.0
G1 X39.21 Y-19.31 Z0.56 F1830.0
G1 X39.24 Y-19.24 Z0.56 F1830.0
G1 X18.97 Y1.03 Z0.56 F1830.0
G1 X18.98 Y1.16 Z0.56 F1830.0
M103
G1 X43.44 Y18.75 Z0.56 F3300.0
G1 X43.45 Y18.87 Z0.56 F3300.0
M101
G1 X43.08 Y19.24 Z0.56 F1830.0
G1 X42.91 Y19.31 Z0.56 F1830.0
G1 X42.34 Y19.31 Z0.56 F1830.0
G1 X42.31 Y19.24 Z0.56 F1830.0
G1 X43.45 Y18.1 Z0.56 F1830.0
G1 X43.52 Y17.94 Z0.56 F1830.0
G1 X43.52 Y17.36 Z0.56 F1830.0
G1 X43.45 Y17.33 Z0.56 F1830.0
G1 X41.54 Y19.24 Z0.56 F1830.0
G1 X41.38 Y19.31 Z0.56 F1830.0
G1 X40.8 Y19.31 Z0.56 F1830.0
G1 X40.77 Y19.24 Z0.56 F1830.0
G1 X43.45 Y16.56 Z0.56 F1830.0
G1 X43.52 Y16.4 Z0.56 F1830.0
G1 X43.52 Y15.82 Z0.56 F1830.0
G1 X43.45 Y15.79 Z0.56 F1830.0
G1 X40.0 Y19.24 Z0.56 F1830.0
G1 X39.84 Y19.31 Z0.56 F1830.0
G1 X39.26 Y19.31 Z0.56 F1830.0
G1 X39.23 Y19.24 Z0.56 F1830.0
G1 X43.45 Y15.02 Z0.56 F1830.0
G1 X43.52 Y14.86 Z0.56 F1830.0
G1 X43.52 Y14.28 Z0.56 F1830.0
G1 X43.45 Y14.25 Z0.56 F1830.0
G1 X38.46 Y19.24 Z0.56 F1830.0
G1 X38.3 Y19.31 Z0.56 F1830.0
G1 X37.72 Y19.31 Z0.56 F1830.0
G1 X37.69 Y19.24 Z0.56 F1830.0
G1 X43.45 Y13.48 Z0.56 F1830.0
G1 X43.52 Y13.32 Z0.56 F1830.0
G1 X43.52 Y12.74 Z0.56 F1830.0
G1 X43.45 Y12.71 Z0.56 F1830.0
G1 X36.92 Y19.24 Z0.56 F1830.0
G1 X36.76 Y19.31 Z0.56 F1830.0
G1 X36.18 Y19.31 Z0.56 F1830.0
G1 X36.15 Y19.24 Z0.56 F1830.0
G1 X43.45 Y11.94 Z0.56 F1830.0
G1 X43.52 Y11.78 Z0.56 F1830.0
G1 X43.52 Y11.2 Z0.56 F1830.0
G1 X43.45 Y11.18 Z0.56 F1830.0
G1 X35.38 Y19.24 Z0.56 F1830.0
G1 X35.22 Y19.31 Z0.56 F1830.0
G1 X34.64 Y19.31 Z0.56 F1830.0
G1 X34.61 Y19.24 Z0.56 F1830.0
G1 X43.45 Y10.4 Z0.56 F1830.0
G1 X43.52 Y10.24 Z0.56 F1830.0
G1 X43.52 Y9.66 Z0.56 F1830.0
G1 X43.45 Y9.64 Z0.56 F1830.0
G1 X33.84 Y19.24 Z0.56 F1830.0
G1 X33.68 Y19.31 Z0.56 F1830.0
G1 X33.1 Y19.31 Z0.56 F1830.0
G1 X33.08 Y19.24 Z0.56 F1830.0
G1 X43.45 Y8.87 Z0.56 F1830.0
G1 X43.52 Y8.71 Z0.56 F1830.0
G1 X43.52 Y8.13 Z0.56 F1830.0
G1 X43.45 Y8.1 Z0.56 F1830.0
G1 X32.31 Y19.24 Z0.56 F1830.0
G1 X32.14 Y19.31 Z0.56 F1830.0
G1 X31.57 Y19.31 Z0.56 F1830.0
G1 X31.54 Y19.24 Z0.56 F1830.0
G1 X43.45 Y7.33 Z0.56 F1830.0
G1 X43.52 Y7.17 Z0.56 F1830.0
G1 X43.52 Y6.59 Z0.56 F1830.0
G1 X43.45 Y6.56 Z0.56 F1830.0
G1 X30.77 Y19.24 Z0.56 F1830.0
G1 X30.61 Y19.31 Z0.56 F1830.0
G1 X30.03 Y19.31 Z0.56 F1830.0
G1 X30.0 Y19.24 Z0.56 F1830.0
G1 X43.45 Y5.79 Z0.56 F1830.0
G1 X43.52 Y5.63 Z0.56 F1830.0
G1 X43.52 Y5.05 Z0.56 F1830.0
G1 X43.45 Y5.02 Z0.56 F1830.0
G1 X29.23 Y19.24 Z0.56 F1830.0
G1 X29.07 Y19.31 Z0.56 F1830.0
G1 X28.49 Y19.31 Z0.56 F1830.0
G1 X28.46 Y19.24 Z0.56 F1830.0
G1 X43.45 Y4.25 Z0.56 F1830.0
G1 X43.52 Y4.09 Z0.56 F1830.0
G1 X43.52 Y3.51 Z0.56 F1830.0
G1 X43.45 Y3.48 Z0.56 F1830.0
G1 X27.69 Y19.24 Z0.56 F1830.0
G1 X27.53 Y19.31 Z0.56 F1830.0
G1 X26.95 Y19.31 Z0.56 F1830.0
G1 X26.92 Y19.24 Z0.56 F1830.0
G1 X43.45 Y2.71 Z0.56 F1830.0
G1 X43.52 Y2.55 Z0.56 F1830.0
G1 X43.52 Y1.97 Z0.56 F1830.0
G1 X43.45 Y1.94 Z0.56 F1830.0
G1 X26.15 Y19.24 Z0.56 F1830.0
G1 X25.99 Y19.31 Z0.56 F1830.0
G1 X25.41 Y19.31 Z0.56 F1830.0
G1 X25.38 Y19.24 Z0.56 F1830.0
G1 X43.45 Y1.17 Z0.56 F1830.0
G1 X43.52 Y1.01 Z0.56 F1830.0
G1 X43.52 Y0.43 Z0.56 F1830.0
G1 X43.45 Y0.4 Z0.56 F1830.0
G1 X24.61 Y19.24 Z0.56 F1830.0
G1 X24.45 Y19.31 Z0.56 F1830.0
G1 X23.87 Y19.31 Z0.56 F1830.0
G1 X23.84 Y19.24 Z0.56 F1830.0
G1 X43.45 Y-0.36 Z0.56 F1830.0
G1 X43.52 Y-0.53 Z0.56 F1830.0
G1 X43.52 Y-1.11 Z0.56 F1830.0
G1 X43.45 Y-1.14 Z0.56 F1830.0
G1 X23.07 Y19.24 Z0.56 F1830.0
G1 X22.91 Y19.31 Z0.56 F1830.0
G1 X22.33 Y19.31 Z0.56 F1830.0
G1 X22.3 Y19.24 Z0.56 F1830.0
G1 X43.45 Y-1.9 Z0.56 F1830.0
G1 X43.52 Y-2.07 Z0.56 F1830.0
G1 X43.52 Y-2.65 Z0.56 F1830.0
G1 X43.45 Y-2.67 Z0.56 F1830.0
G1 X21.54 Y19.24 Z0.56 F1830.0
G1 X21.37 Y19.31 Z0.56 F1830.0
G1 X20.79 Y19.31 Z0.56 F1830.0
G1 X20.77 Y19.24 Z0.56 F1830.0
G1 X43.45 Y-3.44 Z0.56 F1830.0
G1 X43.52 Y-3.6 Z0.56 F1830.0
G1 X43.52 Y-4.18 Z0.56 F1830.0
G1 X43.45 Y-4.21 Z0.56 F1830.0
G1 X20.0 Y19.24 Z0.56 F1830.0
G1 X19.84 Y19.31 Z0.56 F1830.0
G1 X19.26 Y19.31 Z0.56 F1830.0
G1 X19.23 Y19.24 Z0.56 F1830.0
G1 X43.45 Y-4.98 Z0.56 F1830.0
G1 X43.52 Y-5.14 Z0.56 F1830.0
G1 X43.52 Y-5.72 Z0.56 F1830.0
G1 X43.45 Y-5.75 Z0.56 F1830.0
G1 X18.46 Y19.24 Z0.56 F1830.0
G1 X18.3 Y19.31 Z0.56 F1830.0
G1 X17.72 Y19.31 Z0.56 F1830.0
G1 X17.69 Y19.24 Z0.56 F1830.0
G1 X43.45 Y-6.52 Z0.56 F1830.0
G1 X43.52 Y-6.68 Z0.56 F1830.0
G1 X43.52 Y-7.26 Z0.56 F1830.0
G1 X43.45 Y-7.29 Z0.56 F1830.0
G1 X16.92 Y19.24 Z0.56 F1830.0
G1 X16.76 Y19.31 Z0.56 F1830.0
G1 X16.18 Y19.31 Z0.56 F1830.0
G1 X16.15 Y19.24 Z0.56 F1830.0
G1 X43.45 Y-8.06 Z0.56 F1830.0
G1 X43.52 Y-8.22 Z0.56 F1830.0
G1 X43.52 Y-8.8 Z0.56 F1830.0
G1 X43.45 Y-8.83 Z0.56 F1830.0
G1 X15.38 Y19.24 Z0.56 F1830.0
G1 X15.22 Y19.31 Z0.56 F1830.0
G1 X14.64 Y19.31 Z0.56 F1830.0
G1 X14.61 Y19.24 Z0.56 F1830.0
G1 X43.45 Y-9.6 Z0.56 F1830.0
G1 X43.52 Y-9.76 Z0.56 F1830.0
G1 X43.52 Y-10.34 Z0.56 F1830.0
G1 X43.45 Y-10.37 Z0.56 F1830.0
G1 X13.84 Y19.24 Z0.56 F1830.0
G1 X13.68 Y19.31 Z0.56 F1830.0
G1 X13.1 Y19.31 Z0.56 F1830.0
G1 X13.07 Y19.24 Z0.56 F1830.0
G1 X43.45 Y-11.14 Z0.56 F1830.0
G1 X43.52 Y-11.3 Z0.56 F1830.0
G1 X43.52 Y-11.88 Z0.56 F1830.0
G1 X43.45 Y-11.9 Z0.56 F1830.0
G1 X12.3 Y19.24 Z0.56 F1830.0
G1 X12.14 Y19.31 Z0.56 F1830.0
G1 X11.56 Y19.31 Z0.56 F1830.0
G1 X11.53 Y19.24 Z0.56 F1830.0
G1 X43.45 Y-12.68 Z0.56 F1830.0
G1 X43.52 Y-12.84 Z0.56 F1830.0
G1 X43.52 Y-13.42 Z0.56 F1830.0
G1 X43.45 Y-13.44 Z0.56 F1830.0
G1 X10.77 Y19.24 Z0.56 F1830.0
G1 X10.6 Y19.31 Z0.56 F1830.0
G1 X10.02 Y19.31 Z0.56 F1830.0
G1 X10.0 Y19.24 Z0.56 F1830.0
G1 X43.45 Y-14.21 Z0.56 F1830.0
G1 X43.52 Y-14.38 Z0.56 F1830.0
G1 X43.52 Y-14.96 Z0.56 F1830.0
G1 X43.45 Y-14.98 Z0.56 F1830.0
G1 X9.23 Y19.24 Z0.56 F1830.0
G1 X9.06 Y19.31 Z0.56 F1830.0
G1 X8.48 Y19.31 Z0.56 F1830.0
G1 X8.46 Y19.24 Z0.56 F1830.0
G1 X43.45 Y-15.75 Z0.56 F1830.0
G1 X43.52 Y-15.91 Z0.56 F1830.0
G1 X43.52 Y-16.49 Z0.56 F1830.0
G1 X43.45 Y-16.52 Z0.56 F1830.0
G1 X7.69 Y19.24 Z0.56 F1830.0
G1 X7.53 Y19.31 Z0.56 F1830.0
G1 X6.95 Y19.31 Z0.56 F1830.0
G1 X6.92 Y19.24 Z0.56 F1830.0
G1 X43.45 Y-17.29 Z0.56 F1830.0
G1 X43.52 Y-17.45 Z0.56 F1830.0
G1 X43.52 Y-18.03 Z0.56 F1830.0
G1 X43.45 Y-18.06 Z0.56 F1830.0
G1 X6.15 Y19.24 Z0.56 F1830.0
G1 X5.99 Y19.31 Z0.56 F1830.0
G1 X5.41 Y19.31 Z0.56 F1830.0
G1 X5.38 Y19.24 Z0.56 F1830.0
G1 X43.45 Y-18.83 Z0.56 F1830.0
G1 X43.45 Y-18.97 Z0.56 F1830.0
G1 X43.22 Y-19.23 Z0.56 F1830.0
G1 X43.09 Y-19.24 Z0.56 F1830.0
G1 X4.61 Y19.24 Z0.56 F1830.0
G1 X4.45 Y19.31 Z0.56 F1830.0
G1 X3.87 Y19.31 Z0.56 F1830.0
G1 X3.84 Y19.24 Z0.56 F1830.0
G1 X42.32 Y-19.24 Z0.56 F1830.0
G1 X42.29 Y-19.31 Z0.56 F1830.0
G1 X41.71 Y-19.31 Z0.56 F1830.0
G1 X41.55 Y-19.24 Z0.56 F1830.0
G1 X3.07 Y19.24 Z0.56 F1830.0
G1 X2.91 Y19.31 Z0.56 F1830.0
G1 X2.33 Y19.31 Z0.56 F1830.0
G1 X2.3 Y19.24 Z0.56 F1830.0
G1 X40.78 Y-19.24 Z0.56 F1830.0
G1 X40.75 Y-19.31 Z0.56 F1830.0
G1 X40.17 Y-19.31 Z0.56 F1830.0
G1 X40.01 Y-19.24 Z0.56 F1830.0
G1 X1.53 Y19.24 Z0.56 F1830.0
G1 X1.37 Y19.31 Z0.56 F1830.0
G1 X0.79 Y19.31 Z0.56 F1830.0
G1 X0.76 Y19.24 Z0.56 F1830.0
G1 X15.74 Y4.26 Z0.56 F1830.0
G1 X15.71 Y4.19 Z0.56 F1830.0
G1 X15.13 Y4.19 Z0.56 F1830.0
G1 X14.97 Y4.26 Z0.56 F1830.0
G1 X-0.01 Y19.24 Z0.56 F1830.0
G1 X-0.17 Y19.31 Z0.56 F1830.0
G1 X-0.75 Y19.31 Z0.56 F1830.0
G1 X-0.78 Y19.24 Z0.56 F1830.0
G1 X14.2 Y4.26 Z0.56 F1830.0
G1 X14.18 Y4.19 Z0.56 F1830.0
G1 X13.6 Y4.19 Z0.56 F1830.0
G1 X13.43 Y4.26 Z0.56 F1830.0
G1 X-1.54 Y19.24 Z0.56 F1830.0
G1 X-1.71 Y19.31 Z0.56 F1830.0
G1 X-2.29 Y19.31 Z0.56 F1830.0
G1 X-2.31 Y19.24 Z0.56 F1830.0
G1 X12.78 Y4.14 Z0.56 F1830.0
G1 X12.78 Y4.01 Z0.56 F1830.0
G1 X12.53 Y3.76 Z0.56 F1830.0
G1 X12.4 Y3.76 Z0.56 F1830.0
G1 X-3.08 Y19.24 Z0.56 F1830.0
G1 X-3.25 Y19.31 Z0.56 F1830.0
G1 X-3.82 Y19.31 Z0.56 F1830.0
G1 X-3.85 Y19.24 Z0.56 F1830.0
G1 X12.02 Y3.37 Z0.56 F1830.0
G1 X12.02 Y3.24 Z0.56 F1830.0
G1 X11.76 Y2.99 Z0.56 F1830.0
G1 X11.63 Y2.99 Z0.56 F1830.0
G1 X-4.62 Y19.24 Z0.56 F1830.0
G1 X-4.78 Y19.31 Z0.56 F1830.0
G1 X-5.36 Y19.31 Z0.56 F1830.0
G1 X-5.39 Y19.24 Z0.56 F1830.0
G1 X11.25 Y2.6 Z0.56 F1830.0
G1 X11.25 Y2.47 Z0.56 F1830.0
G1 X10.99 Y2.22 Z0.56 F1830.0
G1 X10.86 Y2.22 Z0.56 F1830.0
G1 X-6.16 Y19.24 Z0.56 F1830.0
G1 X-6.32 Y19.31 Z0.56 F1830.0
G1 X-6.9 Y19.31 Z0.56 F1830.0
G1 X-6.93 Y19.24 Z0.56 F1830.0
G1 X10.48 Y1.83 Z0.56 F1830.0
G1 X10.54 Y1.67 Z0.56 F1830.0
G1 X10.52 Y1.12 Z0.56 F1830.0
G1 X10.45 Y1.09 Z0.56 F1830.0
G1 X-7.7 Y19.24 Z0.56 F1830.0
G1 X-7.86 Y19.31 Z0.56 F1830.0
G1 X-8.44 Y19.31 Z0.56 F1830.0
G1 X-8.47 Y19.24 Z0.56 F1830.0
G1 X10.45 Y0.32 Z0.56 F1830.0
G1 X10.52 Y0.16 Z0.56 F1830.0
G1 X10.52 Y-0.42 Z0.56 F1830.0
G1 X10.45 Y-0.45 Z0.56 F1830.0
G1 X-9.24 Y19.24 Z0.56 F1830.0
G1 X-9.4 Y19.31 Z0.56 F1830.0
G1 X-9.98 Y19.31 Z0.56 F1830.0
G1 X-10.01 Y19.24 Z0.56 F1830.0
G1 X28.47 Y-19.24 Z0.56 F1830.0
G1 X28.44 Y-19.31 Z0.56 F1830.0
G1 X27.86 Y-19.31 Z0.56 F1830.0
G1 X27.7 Y-19.24 Z0.56 F1830.0
G1 X-10.78 Y19.24 Z0.56 F1830.0
G1 X-10.94 Y19.31 Z0.56 F1830.0
G1 X-11.52 Y19.31 Z0.56 F1830.0
G1 X-11.55 Y19.24 Z0.56 F1830.0
G1 X26.93 Y-19.24 Z0.56 F1830.0
G1 X26.9 Y-19.31 Z0.56 F1830.0
G1 X26.32 Y-19.31 Z0.56 F1830.0
G1 X26.16 Y-19.24 Z0.56 F1830.0
G1 X-12.31 Y19.24 Z0.56 F1830.0
G1 X-12.48 Y19.31 Z0.56 F1830.0
G1 X-13.06 Y19.31 Z0.56 F1830.0
G1 X-13.08 Y19.24 Z0.56 F1830.0
G1 X25.39 Y-19.24 Z0.56 F1830.0
G1 X25.37 Y-19.31 Z0.56 F1830.0
G1 X24.79 Y-19.31 Z0.56 F1830.0
G1 X24.62 Y-19.24 Z0.56 F1830.0
G1 X-13.85 Y19.24 Z0.56 F1830.0
G1 X-14.02 Y19.31 Z0.56 F1830.0
G1 X-14.6 Y19.31 Z0.56 F1830.0
G1 X-14.62 Y19.24 Z0.56 F1830.0
G1 X23.86 Y-19.24 Z0.56 F1830.0
G1 X23.83 Y-19.31 Z0.56 F1830.0
G1 X23.25 Y-19.31 Z0.56 F1830.0
G1 X23.09 Y-19.24 Z0.56 F1830.0
G1 X-15.39 Y19.24 Z0.56 F1830.0
G1 X-15.55 Y19.31 Z0.56 F1830.0
G1 X-16.13 Y19.31 Z0.56 F1830.0
G1 X-16.16 Y19.24 Z0.56 F1830.0
G1 X22.32 Y-19.24 Z0.56 F1830.0
G1 X22.29 Y-19.31 Z0.56 F1830.0
G1 X21.71 Y-19.31 Z0.56 F1830.0
G1 X21.55 Y-19.24 Z0.56 F1830.0
G1 X-16.93 Y19.24 Z0.56 F1830.0
G1 X-17.09 Y19.31 Z0.56 F1830.0
G1 X-17.67 Y19.31 Z0.56 F1830.0
G1 X-17.7 Y19.24 Z0.56 F1830.0
G1 X20.78 Y-19.24 Z0.56 F1830.0
G1 X20.75 Y-19.31 Z0.56 F1830.0
G1 X20.17 Y-19.31 Z0.56 F1830.0
G1 X20.01 Y-19.24 Z0.56 F1830.0
G1 X-18.47 Y19.24 Z0.56 F1830.0
G1 X-18.63 Y19.31 Z0.56 F1830.0
G1 X-19.21 Y19.31 Z0.56 F1830.0
G1 X-19.24 Y19.24 Z0.56 F1830.0
G1 X19.24 Y-19.24 Z0.56 F1830.0
G1 X19.21 Y-19.31 Z0.56 F1830.0
G1 X18.63 Y-19.31 Z0.56 F1830.0
G1 X18.47 Y-19.24 Z0.56 F1830.0
G1 X-20.01 Y19.24 Z0.56 F1830.0
G1 X-20.17 Y19.31 Z0.56 F1830.0
G1 X-20.75 Y19.31 Z0.56 F1830.0
G1 X-20.78 Y19.24 Z0.56 F1830.0
G1 X17.7 Y-19.24 Z0.56 F1830.0
G1 X17.67 Y-19.31 Z0.56 F1830.0
G1 X17.09 Y-19.31 Z0.56 F1830.0
G1 X16.93 Y-19.24 Z0.56 F1830.0
G1 X-21.55 Y19.24 Z0.56 F1830.0
G1 X-21.71 Y19.31 Z0.56 F1830.0
G1 X-22.29 Y19.31 Z0.56 F1830.0
G1 X-22.32 Y19.24 Z0.56 F1830.0
G1 X16.16 Y-19.24 Z0.56 F1830.0
G1 X16.13 Y-19.31 Z0.56 F1830.0
G1 X15.55 Y-19.31 Z0.56 F1830.0
G1 X15.39 Y-19.24 Z0.56 F1830.0
G1 X-23.09 Y19.24 Z0.56 F1830.0
G1 X-23.25 Y19.31 Z0.56 F1830.0
G1 X-23.83 Y19.31 Z0.56 F1830.0
G1 X-23.86 Y19.24 Z0.56 F1830.0
G1 X14.62 Y-19.24 Z0.56 F1830.0
G1 X14.6 Y-19.31 Z0.56 F1830.0
G1 X14.02 Y-19.31 Z0.56 F1830.0
G1 X13.85 Y-19.24 Z0.56 F1830.0
G1 X-24.62 Y19.24 Z0.56 F1830.0
G1 X-24.79 Y19.31 Z0.56 F1830.0
G1 X-25.37 Y19.31 Z0.56 F1830.0
G1 X-25.39 Y19.24 Z0.56 F1830.0
G1 X13.08 Y-19.24 Z0.56 F1830.0
G1 X13.06 Y-19.31 Z0.56 F1830.0
G1 X12.48 Y-19.31 Z0.56 F1830.0
G1 X12.31 Y-19.24 Z0.56 F1830.0
G1 X-26.16 Y19.24 Z0.56 F1830.0
G1 X-26.32 Y19.31 Z0.56 F1830.0
G1 X-26.9 Y19.31 Z0.56 F1830.0
G1 X-26.93 Y19.24 Z0.56 F1830.0
G1 X11.55 Y-19.24 Z0.56 F1830.0
G1 X11.52 Y-19.31 Z0.56 F1830.0
G1 X10.94 Y-19.31 Z0.56 F1830.0
G1 X10.78 Y-19.24 Z0.56 F1830.0
G1 X-27.7 Y19.24 Z0.56 F1830.0
G1 X-27.86 Y19.31 Z0.56 F1830.0
G1 X-28.44 Y19.31 Z0.56 F1830.0
G1 X-28.47 Y19.24 Z0.56 F1830.0
G1 X10.01 Y-19.24 Z0.56 F1830.0
G1 X9.98 Y-19.31 Z0.56 F1830.0
G1 X9.4 Y-19.31 Z0.56 F1830.0
G1 X9.24 Y-19.24 Z0.56 F1830.0
G1 X-29.24 Y19.24 Z0.56 F1830.0
G1 X-29.4 Y19.31 Z0.56 F1830.0
G1 X-29.98 Y19.31 Z0.56 F1830.0
G1 X-30.01 Y19.24 Z0.56 F1830.0
G1 X8.47 Y-19.24 Z0.56 F1830.0
G1 X8.44 Y-19.31 Z0.56 F1830.0
G1 X7.86 Y-19.31 Z0.56 F1830.0
G1 X7.7 Y-19.24 Z0.56 F1830.0
G1 X-30.78 Y19.24 Z0.56 F1830.0
G1 X-30.94 Y19.31 Z0.56 F1830.0
G1 X-31.52 Y19.31 Z0.56 F1830.0
G1 X-31.55 Y19.24 Z0.56 F1830.0
G1 X6.93 Y-19.24 Z0.56 F1830.0
G1 X6.9 Y-19.31 Z0.56 F1830.0
G1 X6.32 Y-19.31 Z0.56 F1830.0
G1 X6.16 Y-19.24 Z0.56 F1830.0
G1 X-32.32 Y19.24 Z0.56 F1830.0
G1 X-32.48 Y19.31 Z0.56 F1830.0
G1 X-33.06 Y19.31 Z0.56 F1830.0
G1 X-33.09 Y19.24 Z0.56 F1830.0
G1 X5.39 Y-19.24 Z0.56 F1830.0
G1 X5.36 Y-19.31 Z0.56 F1830.0
G1 X4.78 Y-19.31 Z0.56 F1830.0
G1 X4.62 Y-19.24 Z0.56 F1830.0
G1 X-33.86 Y19.24 Z0.56 F1830.0
G1 X-34.02 Y19.31 Z0.56 F1830.0
G1 X-34.6 Y19.31 Z0.56 F1830.0
G1 X-34.63 Y19.24 Z0.56 F1830.0
G1 X3.85 Y-19.24 Z0.56 F1830.0
G1 X3.82 Y-19.31 Z0.56 F1830.0
G1 X3.25 Y-19.31 Z0.56 F1830.0
G1 X3.08 Y-19.24 Z0.56 F1830.0
G1 X-35.4 Y19.24 Z0.56 F1830.0
G1 X-35.56 Y19.31 Z0.56 F1830.0
G1 X-36.14 Y19.31 Z0.56 F1830.0
G1 X-36.16 Y19.24 Z0.56 F1830.0
G1 X2.31 Y-19.24 Z0.56 F1830.0
G1 X2.29 Y-19.31 Z0.56 F1830.0
G1 X1.71 Y-19.31 Z0.56 F1830.0
G1 X1.54 Y-19.24 Z0.56 F1830.0
G1 X-36.93 Y19.24 Z0.56 F1830.0
G1 X-37.09 Y19.31 Z0.56 F1830.0
G1 X-37.67 Y19.31 Z0.56 F1830.0
G1 X-37.7 Y19.24 Z0.56 F1830.0
G1 X0.78 Y-19.24 Z0.56 F1830.0
G1 X0.75 Y-19.31 Z0.56 F1830.0
G1 X0.17 Y-19.31 Z0.56 F1830.0
G1 X0.01 Y-19.24 Z0.56 F1830.0
G1 X-38.47 Y19.24 Z0.56 F1830.0
G1 X-38.63 Y19.31 Z0.56 F1830.0
G1 X-39.21 Y19.31 Z0.56 F1830.0
G1 X-39.24 Y19.24 Z0.56 F1830.0
G1 X-0.76 Y-19.24 Z0.56 F1830.0
G1 X-0.79 Y-19.31 Z0.56 F1830.0
G1 X-1.37 Y-19.31 Z0.56 F1830.0
G1 X-1.53 Y-19.24 Z0.56 F1830.0
G1 X-40.01 Y19.24 Z0.56 F1830.0
G1 X-40.17 Y19.31 Z0.56 F1830.0
G1 X-40.75 Y19.31 Z0.56 F1830.0
G1 X-40.78 Y19.24 Z0.56 F1830.0
G1 X-2.3 Y-19.24 Z0.56 F1830.0
G1 X-2.33 Y-19.31 Z0.56 F1830.0
G1 X-2.91 Y-19.31 Z0.56 F1830.0
G1 X-3.07 Y-19.24 Z0.56 F1830.0
G1 X-41.55 Y19.24 Z0.56 F1830.0
G1 X-41.55 Y19.24 Z0.56 F1830.0
M103
G1 X-19.56 Y-3.52 Z0.56 F3300.0
G1 X-19.43 Y-3.65 Z0.56 F3300.0
M101
G1 X-3.84 Y-19.24 Z0.56 F1830.0
G1 X-3.87 Y-19.31 Z0.56 F1830.0
G1 X-4.45 Y-19.31 Z0.56 F1830.0
G1 X-4.61 Y-19.24 Z0.56 F1830.0
G1 X-19.43 Y-4.42 Z0.56 F1830.0
G1 X-19.5 Y-4.45 Z0.56 F1830.0
G1 X-19.5 Y-5.03 Z0.56 F1830.0
G1 X-19.43 Y-5.19 Z0.56 F1830.0
G1 X-5.38 Y-19.24 Z0.56 F1830.0
G1 X-5.41 Y-19.31 Z0.56 F1830.0
G1 X-5.99 Y-19.31 Z0.56 F1830.0
G1 X-6.15 Y-19.24 Z0.56 F1830.0
G1 X-19.43 Y-5.96 Z0.56 F1830.0
G1 X-19.5 Y-5.99 Z0.56 F1830.0
G1 X-19.5 Y-6.57 Z0.56 F1830.0
G1 X-19.43 Y-6.73 Z0.56 F1830.0
G1 X-6.92 Y-19.24 Z0.56 F1830.0
G1 X-6.95 Y-19.31 Z0.56 F1830.0
G1 X-7.53 Y-19.31 Z0.56 F1830.0
G1 X-7.69 Y-19.24 Z0.56 F1830.0
G1 X-19.43 Y-7.5 Z0.56 F1830.0
G1 X-19.5 Y-7.53 Z0.56 F1830.0
G1 X-19.5 Y-8.1 Z0.56 F1830.0
G1 X-19.43 Y-8.27 Z0.56 F1830.0
G1 X-8.46 Y-19.24 Z0.56 F1830.0
G1 X-8.48 Y-19.31 Z0.56 F1830.0
G1 X-9.06 Y-19.31 Z0.56 F1830.0
G1 X-9.23 Y-19.24 Z0.56 F1830.0
G1 X-19.43 Y-9.04 Z0.56 F1830.0
G1 X-19.5 Y-9.06 Z0.56 F1830.0
G1 X-19.5 Y-9.64 Z0.56 F1830.0
G1 X-19.43 Y-9.8 Z0.56 F1830.0
G1 X-10.0 Y-19.24 Z0.56 F1830.0
G1 X-10.02 Y-19.31 Z0.56 F1830.0
G1 X-10.6 Y-19.31 Z0.56 F1830.0
G1 X-10.77 Y-19.24 Z0.56 F1830.0
G1 X-19.43 Y-10.57 Z0.56 F1830.0
G1 X-19.5 Y-10.6 Z0.56 F1830.0
G1 X-19.5 Y-11.18 Z0.56 F1830.0
G1 X-19.43 Y-11.34 Z0.56 F1830.0
G1 X-11.53 Y-19.24 Z0.56 F1830.0
G1 X-11.56 Y-19.31 Z0.56 F1830.0
G1 X-12.14 Y-19.31 Z0.56 F1830.0
G1 X-12.3 Y-19.24 Z0.56 F1830.0
G1 X-19.43 Y-12.11 Z0.56 F1830.0
G1 X-19.5 Y-12.14 Z0.56 F1830.0
G1 X-19.5 Y-12.72 Z0.56 F1830.0
G1 X-19.43 Y-12.88 Z0.56 F1830.0
G1 X-13.07 Y-19.24 Z0.56 F1830.0
G1 X-13.1 Y-19.31 Z0.56 F1830.0
G1 X-13.68 Y-19.31 Z0.56 F1830.0
G1 X-13.84 Y-19.24 Z0.56 F1830.0
G1 X-19.43 Y-13.65 Z0.56 F1830.0
G1 X-19.5 Y-13.68 Z0.56 F1830.0
G1 X-19.5 Y-14.26 Z0.56 F1830.0
G1 X-19.43 Y-14.42 Z0.56 F1830.0
G1 X-14.61 Y-19.24 Z0.56 F1830.0
G1 X-14.64 Y-19.31 Z0.56 F1830.0
G1 X-15.22 Y-19.31 Z0.56 F1830.0
G1 X-15.38 Y-19.24 Z0.56 F1830.0
G1 X-19.43 Y-15.19 Z0.56 F1830.0
G1 X-19.5 Y-15.22 Z0.56 F1830.0
G1 X-19.5 Y-15.8 Z0.56 F1830.0
G1 X-19.43 Y-15.96 Z0.56 F1830.0
G1 X-16.15 Y-19.24 Z0.56 F1830.0
G1 X-16.18 Y-19.31 Z0.56 F1830.0
G1 X-16.76 Y-19.31 Z0.56 F1830.0
G1 X-16.92 Y-19.24 Z0.56 F1830.0
G1 X-19.43 Y-16.73 Z0.56 F1830.0
G1 X-19.5 Y-16.76 Z0.56 F1830.0
G1 X-19.5 Y-17.34 Z0.56 F1830.0
G1 X-19.43 Y-17.5 Z0.56 F1830.0
G1 X-17.69 Y-19.24 Z0.56 F1830.0
G1 X-17.72 Y-19.31 Z0.56 F1830.0
G1 X-18.3 Y-19.31 Z0.56 F1830.0
G1 X-18.46 Y-19.24 Z0.56 F1830.0
G1 X-19.43 Y-18.27 Z0.56 F1830.0
G1 X-19.5 Y-18.3 Z0.56 F1830.0
G1 X-19.5 Y-18.88 Z0.56 F1830.0
G1 X-19.43 Y-19.04 Z0.56 F1830.0
G1 X-19.23 Y-19.24 Z0.56 F1830.0
G1 X-19.15 Y-19.39 Z0.6 F1830.0
M103
G1 X-19.07 Y-20.17 Z0.9 F3300.0
G1 X-18.97 Y-20.26 Z0.94 F3300.0
M101
G1 X44.37 Y-20.26 Z0.94 F1830.0
G1 X44.47 Y-20.16 Z0.94 F1830.0
G1 X44.47 Y20.16 Z0.94 F1830.0
G1 X44.37 Y20.26 Z0.94 F1830.0
G1 X-44.05 Y20.26 Z0.94 F1830.0
G1 X-44.07 Y20.24 Z0.94 F1830.0
G1 X-44.07 Y20.21 Z0.94 F1830.0
G1 X-20.51 Y-3.35 Z0.94 F1830.0
G1 X-20.45 Y-3.51 Z0.94 F1830.0
G1 X-20.45 Y-20.16 Z0.94 F1830.0
G1 X-20.35 Y-20.26 Z0.94 F1830.0
G1 X-19.35 Y-20.26 Z0.94 F1830.0
G1 X-19.18 Y-20.21 Z0.94 F1830.0
M103
G1 X11.38 Y-1.3 Z0.94 F3300.0
G1 X11.46 Y-1.15 Z0.94 F3300.0
M101
G1 X11.46 Y1.25 Z0.94 F1830.0
G1 X11.53 Y1.41 Z0.94 F1830.0
G1 X13.3 Y3.18 Z0.94 F1830.0
G1 X13.46 Y3.24 Z0.94 F1830.0
G1 X15.96 Y3.24 Z0.94 F1830.0
G1 X16.12 Y3.18 Z0.94 F1830.0
G1 X17.89 Y1.41 Z0.94 F1830.0
G1 X17.95 Y1.25 Z0.94 F1830.0
G1 X17.95 Y-1.25 Z0.94 F1830.0
G1 X17.89 Y-1.41 Z0.94 F1830.0
G1 X16.12 Y-3.18 Z0.94 F1830.0
G1 X15.96 Y-3.24 Z0.94 F1830.0
G1 X13.46 Y-3.24 Z0.94 F1830.0
G1 X13.3 Y-3.18 Z0.94 F1830.0
G1 X11.6 Y-1.48 Z0.94 F1830.0
G1 X11.44 Y-1.42 Z0.94 F1830.0
M103
G1 X11.04 Y-1.45 Z0.94 F3300.0
G1 X10.95 Y-1.36 Z0.94 F3300.0
M101
G1 X10.95 Y1.46 Z0.94 F1830.0
G1 X11.02 Y1.63 Z0.94 F1830.0
G1 X13.08 Y3.69 Z0.94 F1830.0
G1 X13.25 Y3.76 Z0.94 F1830.0
G1 X16.17 Y3.76 Z0.94 F1830.0
G1 X16.33 Y3.69 Z0.94 F1830.0
G1 X18.4 Y1.63 Z0.94 F1830.0
G1 X18.47 Y1.46 Z0.94 F1830.0
G1 X18.47 Y-1.46 Z0.94 F1830.0
G1 X18.4 Y-1.63 Z0.94 F1830.0
G1 X16.33 Y-3.69 Z0.94 F1830.0
G1 X16.17 Y-3.76 Z0.94 F1830.0
G1 X13.25 Y-3.76 Z0.94 F1830.0
G1 X13.08 Y-3.69 Z0.94 F1830.0
G1 X11.09 Y-1.69 Z0.94 F1830.0
G1 X11.02 Y-1.72 Z0.94 F1830.0
M103
G1 X11.05 Y-19.64 Z0.94 F3300.0
G1 X11.14 Y-19.74 Z0.94 F3300.0
M101
G1 X43.85 Y-19.74 Z0.94 F1830.0
G1 X43.95 Y-19.64 Z0.94 F1830.0
G1 X43.95 Y19.64 Z0.94 F1830.0
G1 X43.85 Y19.74 Z0.94 F1830.0
G1 X-42.34 Y19.74 Z0.94 F1830.0
G1 X-42.47 Y19.65 Z0.94 F1830.0
G1 X-42.53 Y19.52 Z0.94 F1830.0
G1 X-42.5 Y19.36 Z0.94 F1830.0
G1 X-20.0 Y-3.13 Z0.94 F1830.0
G1 X-19.93 Y-3.3 Z0.94 F1830.0
G1 X-19.93 Y-19.64 Z0.94 F1830.0
G1 X-19.84 Y-19.74 Z0.94 F1830.0
G1 X10.76 Y-19.74 Z0.94 F1830.0
G1 X10.95 Y-19.74 Z0.94 F1830.0
M103
G1 X42.15 Y-19.31 Z0.94 F3300.0
G1 X42.34 Y-19.31 Z0.94 F3300.0
M101
G1 X43.0 Y-19.31 Z0.94 F1830.0
G1 X43.16 Y-19.24 Z0.94 F1830.0
G1 X43.45 Y-18.95 Z0.94 F1830.0
G1 X43.52 Y-18.79 Z0.94 F1830.0
G1 X43.52 Y-18.13 Z0.94 F1830.0
G1 X43.44 Y-17.97 Z0.94 F1830.0
G1 X42.62 Y-17.27 Z0.94 F1830.0
G1 X42.61 Y-17.14 Z0.94 F1830.0
G1 X42.78 Y-16.97 Z0.94 F1830.0
G1 X42.94 Y-16.94 Z0.94 F1830.0
G1 X43.43 Y-17.14 Z0.94 F1830.0
G1 X43.52 Y-17.08 Z0.94 F1830.0
G1 X43.52 Y-10.43 Z0.94 F1830.0
G1 X43.45 Y-10.41 Z0.94 F1830.0
G1 X37.56 Y-17.13 Z0.94 F1830.0
G1 X37.41 Y-17.2 Z0.94 F1830.0
G1 X34.55 Y-17.06 Z0.94 F1830.0
G1 X34.39 Y-17.12 Z0.94 F1830.0
G1 X34.22 Y-17.29 Z0.94 F1830.0
G1 X34.24 Y-17.39 Z0.94 F1830.0
G1 X38.73 Y-18.68 Z0.94 F1830.0
G1 X38.92 Y-18.7 Z0.94 F1830.0
G1 X40.44 Y-18.7 Z0.94 F1830.0
G1 X40.61 Y-18.76 Z0.94 F1830.0
G1 X41.31 Y-19.25 Z0.94 F1830.0
G1 X41.29 Y-19.31 Z0.94 F1830.0
G1 X25.24 Y-19.31 Z0.94 F1830.0
G1 X25.17 Y-19.21 Z0.94 F1830.0
G1 X25.58 Y-17.45 Z0.94 F1830.0
G1 X25.67 Y-17.29 Z0.94 F1830.0
G1 X25.84 Y-17.12 Z0.94 F1830.0
G1 X26.0 Y-17.05 Z0.94 F1830.0
G1 X33.75 Y-17.05 Z0.94 F1830.0
G1 X33.91 Y-16.99 Z0.94 F1830.0
G1 X34.08 Y-16.81 Z0.94 F1830.0
G1 X34.15 Y-16.65 Z0.94 F1830.0
G1 X34.15 Y-8.91 Z0.94 F1830.0
G1 X34.22 Y-8.74 Z0.94 F1830.0
G1 X34.39 Y-8.57 Z0.94 F1830.0
G1 X34.55 Y-8.51 Z0.94 F1830.0
G1 X42.45 Y-8.66 Z0.94 F1830.0
G1 X42.61 Y-8.59 Z0.94 F1830.0
G1 X42.78 Y-8.42 Z0.94 F1830.0
G1 X42.9 Y-8.43 Z0.94 F1830.0
G1 X43.47 Y-9.4 Z0.94 F1830.0
G1 X43.52 Y-9.39 Z0.94 F1830.0
G1 X43.52 Y-1.03 Z0.94 F1830.0
G1 X43.44 Y-0.87 Z0.94 F1830.0
G1 X42.62 Y-0.17 Z0.94 F1830.0
G1 X42.61 Y-0.04 Z0.94 F1830.0
G1 X42.78 Y0.13 Z0.94 F1830.0
G1 X42.94 Y0.16 Z0.94 F1830.0
G1 X43.43 Y-0.04 Z0.94 F1830.0
G1 X43.52 Y0.01 Z0.94 F1830.0
G1 X43.52 Y6.66 Z0.94 F1830.0
G1 X43.44 Y6.7 Z0.94 F1830.0
G1 X34.53 Y0.1 Z0.94 F1830.0
G1 X34.39 Y-0.02 Z0.94 F1830.0
G1 X34.22 Y-0.2 Z0.94 F1830.0
G1 X34.15 Y-0.36 Z0.94 F1830.0
G1 X34.15 Y-8.1 Z0.94 F1830.0
G1 X34.08 Y-8.27 Z0.94 F1830.0
G1 X33.91 Y-8.44 Z0.94 F1830.0
G1 X33.75 Y-8.51 Z0.94 F1830.0
G1 X26.0 Y-8.51 Z0.94 F1830.0
G1 X25.84 Y-8.57 Z0.94 F1830.0
G1 X25.67 Y-8.74 Z0.94 F1830.0
G1 X25.6 Y-8.91 Z0.94 F1830.0
G1 X25.6 Y-16.65 Z0.94 F1830.0
G1 X25.54 Y-16.81 Z0.94 F1830.0
G1 X25.36 Y-16.99 Z0.94 F1830.0
G1 X25.2 Y-17.05 Z0.94 F1830.0
G1 X17.45 Y-17.05 Z0.94 F1830.0
G1 X17.29 Y-17.12 Z0.94 F1830.0
G1 X17.12 Y-17.29 Z0.94 F1830.0
G1 X17.14 Y-17.39 Z0.94 F1830.0
G1 X21.63 Y-18.68 Z0.94 F1830.0
G1 X21.82 Y-18.7 Z0.94 F1830.0
G1 X23.34 Y-18.7 Z0.94 F1830.0
G1 X23.51 Y-18.76 Z0.94 F1830.0
G1 X24.21 Y-19.25 Z0.94 F1830.0
G1 X24.2 Y-19.31 Z0.94 F1830.0
G1 X8.14 Y-19.31 Z0.94 F1830.0
G1 X8.07 Y-19.21 Z0.94 F1830.0
G1 X8.48 Y-17.45 Z0.94 F1830.0
G1 X8.57 Y-17.29 Z0.94 F1830.0
G1 X8.74 Y-17.12 Z0.94 F1830.0
G1 X8.91 Y-17.05 Z0.94 F1830.0
G1 X16.65 Y-17.05 Z0.94 F1830.0
G1 X16.81 Y-16.99 Z0.94 F1830.0
G1 X16.99 Y-16.81 Z0.94 F1830.0
G1 X17.05 Y-16.65 Z0.94 F1830.0
G1 X17.05 Y-8.91 Z0.94 F1830.0
G1 X17.12 Y-8.74 Z0.94 F1830.0
G1 X17.29 Y-8.57 Z0.94 F1830.0
G1 X17.45 Y-8.51 Z0.94 F1830.0
G1 X25.2 Y-8.51 Z0.94 F1830.0
G1 X25.36 Y-8.44 Z0.94 F1830.0
G1 X25.54 Y-8.27 Z0.94 F1830.0
G1 X25.6 Y-8.1 Z0.94 F1830.0
G1 X25.6 Y-0.36 Z0.94 F1830.0
G1 X25.67 Y-0.2 Z0.94 F1830.0
G1 X25.84 Y-0.02 Z0.94 F1830.0
G1 X26.0 Y0.04 Z0.94 F1830.0
G1 X33.75 Y0.04 Z0.94 F1830.0
G1 X33.91 Y0.11 Z0.94 F1830.0
G1 X34.08 Y0.28 Z0.94 F1830.0
G1 X34.15 Y0.44 Z0.94 F1830.0
G1 X34.15 Y8.19 Z0.94 F1830.0
G1 X34.22 Y8.35 Z0.94 F1830.0
G1 X34.39 Y8.53 Z0.94 F1830.0
G1 X34.55 Y8.59 Z0.94 F1830.0
G1 X42.45 Y8.44 Z0.94 F1830.0
G1 X42.61 Y8.5 Z0.94 F1830.0
G1 X42.78 Y8.68 Z0.94 F1830.0
G1 X42.9 Y8.66 Z0.94 F1830.0
G1 X43.47 Y7.7 Z0.94 F1830.0
G1 X43.52 Y7.71 Z0.94 F1830.0
G1 X43.52 Y18.63 Z0.94 F1830.0
G1 X43.47 Y18.81 Z0.94 F1830.0
G1 X43.28 Y19.22 Z0.94 F1830.0
G1 X43.15 Y19.31 Z0.94 F1830.0
G1 X39.92 Y19.31 Z0.94 F1830.0
G1 X39.73 Y19.27 Z0.94 F1830.0
G1 X34.39 Y17.33 Z0.94 F1830.0
G1 X34.24 Y17.23 Z0.94 F1830.0
G1 X34.06 Y17.05 Z0.94 F1830.0
G1 X34.0 Y16.89 Z0.94 F1830.0
G1 X34.15 Y8.99 Z0.94 F1830.0
G1 X34.08 Y8.83 Z0.94 F1830.0
G1 X33.91 Y8.66 Z0.94 F1830.0
G1 X33.75 Y8.59 Z0.94 F1830.0
G1 X26.0 Y8.59 Z0.94 F1830.0
G1 X25.84 Y8.53 Z0.94 F1830.0
G1 X25.67 Y8.35 Z0.94 F1830.0
G1 X25.6 Y8.19 Z0.94 F1830.0
G1 X25.6 Y0.44 Z0.94 F1830.0
G1 X25.54 Y0.28 Z0.94 F1830.0
G1 X25.36 Y0.11 Z0.94 F1830.0
G1 X25.2 Y0.04 Z0.94 F1830.0
G1 X19.0 Y0.1 Z0.94 F1830.0
G1 X18.9 Y0.0 Z0.94 F1830.0
G1 X18.9 Y-1.52 Z0.94 F1830.0
G1 X18.84 Y-1.68 Z0.94 F1830.0
G1 X16.39 Y-4.13 Z0.94 F1830.0
G1 X16.34 Y-4.29 Z0.94 F1830.0
G1 X17.04 Y-8.11 Z0.94 F1830.0
G1 X16.99 Y-8.27 Z0.94 F1830.0
G1 X16.81 Y-8.44 Z0.94 F1830.0
G1 X16.65 Y-8.51 Z0.94 F1830.0
G1 X8.91 Y-8.51 Z0.94 F1830.0
G1 X8.74 Y-8.57 Z0.94 F1830.0
G1 X8.57 Y-8.74 Z0.94 F1830.0
G1 X8.51 Y-8.91 Z0.94 F1830.0
G1 X8.51 Y-16.65 Z0.94 F1830.0
G1 X8.44 Y-16.81 Z0.94 F1830.0
G1 X8.27 Y-16.99 Z0.94 F1830.0
G1 X8.1 Y-17.05 Z0.94 F1830.0
G1 X0.36 Y-17.05 Z0.94 F1830.0
G1 X0.2 Y-17.12 Z0.94 F1830.0
G1 X0.02 Y-17.29 Z0.94 F1830.0
G1 X0.05 Y-17.39 Z0.94 F1830.0
G1 X4.54 Y-18.68 Z0.94 F1830.0
G1 X4.72 Y-18.7 Z0.94 F1830.0
G1 X6.24 Y-18.7 Z0.94 F1830.0
G1 X6.42 Y-18.76 Z0.94 F1830.0
G1 X7.12 Y-19.25 Z0.94 F1830.0
G1 X7.1 Y-19.31 Z0.94 F1830.0
G1 X-8.1 Y-19.31 Z0.94 F1830.0
G1 X-8.21 Y-19.21 Z0.94 F1830.0
G1 X-8.57 Y-17.45 Z0.94 F1830.0
G1 X-8.53 Y-17.29 Z0.94 F1830.0
G1 X-8.35 Y-17.12 Z0.94 F1830.0
G1 X-8.19 Y-17.05 Z0.94 F1830.0
G1 X-0.44 Y-17.05 Z0.94 F1830.0
G1 X-0.28 Y-16.99 Z0.94 F1830.0
G1 X-0.11 Y-16.81 Z0.94 F1830.0
G1 X-0.04 Y-16.65 Z0.94 F1830.0
G1 X-0.04 Y-8.91 Z0.94 F1830.0
G1 X0.02 Y-8.74 Z0.94 F1830.0
G1 X0.2 Y-8.57 Z0.94 F1830.0
G1 X0.36 Y-8.51 Z0.94 F1830.0
G1 X8.1 Y-8.51 Z0.94 F1830.0
G1 X8.27 Y-8.44 Z0.94 F1830.0
G1 X8.44 Y-8.27 Z0.94 F1830.0
G1 X8.51 Y-8.1 Z0.94 F1830.0
G1 X8.51 Y-0.36 Z0.94 F1830.0
G1 X8.57 Y-0.2 Z0.94 F1830.0
G1 X8.74 Y-0.02 Z0.94 F1830.0
G1 X8.89 Y0.1 Z0.94 F1830.0
G1 X10.43 Y1.06 Z0.94 F1830.0
G1 X10.52 Y1.02 Z0.94 F1830.0
G1 X10.52 Y-1.36 Z0.94 F1830.0
G1 X10.56 Y-1.54 Z0.94 F1830.0
G1 X10.76 Y-1.94 Z0.94 F1830.0
G1 X10.87 Y-2.09 Z0.94 F1830.0
G1 X12.87 Y-4.09 Z0.94 F1830.0
G1 X13.03 Y-4.16 Z0.94 F1830.0
G1 X15.37 Y-4.19 Z0.94 F1830.0
G1 X15.45 Y-4.1 Z0.94 F1830.0
M103
G1 X13.62 Y4.1 Z0.94 F3300.0
G1 X13.69 Y4.19 Z0.94 F3300.0
M101
G1 X16.07 Y4.19 Z0.94 F1830.0
G1 X16.25 Y4.15 Z0.94 F1830.0
G1 X16.65 Y3.95 Z0.94 F1830.0
G1 X16.8 Y3.84 Z0.94 F1830.0
G1 X18.8 Y1.84 Z0.94 F1830.0
G1 X18.84 Y1.86 Z0.94 F1830.0
G1 X17.08 Y8.19 Z0.94 F1830.0
G1 X17.12 Y8.35 Z0.94 F1830.0
G1 X17.29 Y8.53 Z0.94 F1830.0
G1 X17.45 Y8.59 Z0.94 F1830.0
G1 X25.2 Y8.59 Z0.94 F1830.0
G1 X25.36 Y8.66 Z0.94 F1830.0
G1 X25.54 Y8.83 Z0.94 F1830.0
G1 X25.6 Y8.99 Z0.94 F1830.0
G1 X25.6 Y16.74 Z0.94 F1830.0
G1 X25.67 Y16.9 Z0.94 F1830.0
G1 X25.84 Y17.07 Z0.94 F1830.0
G1 X26.0 Y17.16 Z0.94 F1830.0
G1 X32.04 Y18.68 Z0.94 F1830.0
G1 X32.22 Y18.7 Z0.94 F1830.0
G1 X37.16 Y18.7 Z0.94 F1830.0
G1 X37.34 Y18.76 Z0.94 F1830.0
G1 X38.03 Y19.25 Z0.94 F1830.0
G1 X38.02 Y19.31 Z0.94 F1830.0
G1 X26.38 Y19.31 Z0.94 F1830.0
G1 X26.25 Y19.22 Z0.94 F1830.0
G1 X25.64 Y17.53 Z0.94 F1830.0
G1 X25.54 Y17.38 Z0.94 F1830.0
G1 X25.36 Y17.2 Z0.94 F1830.0
G1 X25.3 Y17.23 Z0.94 F1830.0
G1 X25.29 Y19.21 Z0.94 F1830.0
G1 X25.2 Y19.31 Z0.94 F1830.0
G1 X18.55 Y19.31 Z0.94 F1830.0
G1 X18.4 Y19.23 Z0.94 F1830.0
G1 X17.26 Y17.37 Z0.94 F1830.0
G1 X17.14 Y17.23 Z0.94 F1830.0
G1 X16.97 Y17.05 Z0.94 F1830.0
G1 X16.9 Y16.89 Z0.94 F1830.0
G1 X17.05 Y8.99 Z0.94 F1830.0
G1 X16.99 Y8.83 Z0.94 F1830.0
G1 X16.81 Y8.66 Z0.94 F1830.0
G1 X16.65 Y8.59 Z0.94 F1830.0
G1 X9.33 Y8.5 Z0.94 F1830.0
G1 X9.14 Y8.52 Z0.94 F1830.0
G1 X8.9 Y8.57 Z0.94 F1830.0
G1 X8.74 Y8.53 Z0.94 F1830.0
G1 X8.57 Y8.35 Z0.94 F1830.0
G1 X8.53 Y8.19 Z0.94 F1830.0
G1 X8.6 Y7.92 Z0.94 F1830.0
G1 X8.62 Y7.73 Z0.94 F1830.0
G1 X8.51 Y0.44 Z0.94 F1830.0
G1 X8.44 Y0.28 Z0.94 F1830.0
G1 X8.27 Y0.11 Z0.94 F1830.0
G1 X8.1 Y0.04 Z0.94 F1830.0
G1 X0.36 Y0.04 Z0.94 F1830.0
G1 X0.2 Y-0.02 Z0.94 F1830.0
G1 X0.02 Y-0.2 Z0.94 F1830.0
G1 X-0.04 Y-0.36 Z0.94 F1830.0
G1 X-0.04 Y-8.1 Z0.94 F1830.0
G1 X-0.11 Y-8.27 Z0.94 F1830.0
G1 X-0.28 Y-8.44 Z0.94 F1830.0
G1 X-0.44 Y-8.51 Z0.94 F1830.0
G1 X-8.19 Y-8.51 Z0.94 F1830.0
G1 X-8.35 Y-8.57 Z0.94 F1830.0
G1 X-8.53 Y-8.74 Z0.94 F1830.0
G1 X-8.59 Y-8.91 Z0.94 F1830.0
G1 X-8.59 Y-16.65 Z0.94 F1830.0
G1 X-8.66 Y-16.81 Z0.94 F1830.0
G1 X-8.83 Y-16.99 Z0.94 F1830.0
G1 X-8.9 Y-17.15 Z0.94 F1830.0
G1 X-9.04 Y-19.21 Z0.94 F1830.0
G1 X-9.14 Y-19.31 Z0.94 F1830.0
G1 X-19.21 Y-19.31 Z0.94 F1830.0
G1 X-19.33 Y-19.21 Z0.94 F1830.0
G1 X-19.47 Y-18.73 Z0.94 F1830.0
G1 X-19.5 Y-18.55 Z0.94 F1830.0
G1 X-19.5 Y-17.88 Z0.94 F1830.0
G1 X-19.41 Y-17.76 Z0.94 F1830.0
G1 X-17.39 Y-17.23 Z0.94 F1830.0
G1 X-17.23 Y-17.14 Z0.94 F1830.0
G1 X-17.05 Y-16.97 Z0.94 F1830.0
G1 X-17.08 Y-16.9 Z0.94 F1830.0
G1 X-19.4 Y-16.93 Z0.94 F1830.0
G1 X-19.5 Y-16.84 Z0.94 F1830.0
G1 X-19.5 Y-10.19 Z0.94 F1830.0
G1 X-19.42 Y-10.04 Z0.94 F1830.0
G1 X-17.37 Y-8.71 Z0.94 F1830.0
G1 X-17.23 Y-8.59 Z0.94 F1830.0
G1 X-17.05 Y-8.42 Z0.94 F1830.0
G1 X-16.89 Y-8.35 Z0.94 F1830.0
G1 X-8.99 Y-8.5 Z0.94 F1830.0
G1 X-8.83 Y-8.44 Z0.94 F1830.0
G1 X-8.66 Y-8.27 Z0.94 F1830.0
G1 X-8.59 Y-8.1 Z0.94 F1830.0
G1 X-8.59 Y-0.36 Z0.94 F1830.0
G1 X-8.53 Y-0.2 Z0.94 F1830.0
G1 X-8.35 Y-0.02 Z0.94 F1830.0
G1 X-8.19 Y0.04 Z0.94 F1830.0
G1 X-0.44 Y0.04 Z0.94 F1830.0
G1 X-0.28 Y0.11 Z0.94 F1830.0
G1 X-0.11 Y0.28 Z0.94 F1830.0
G1 X-0.04 Y0.44 Z0.94 F1830.0
G1 X-0.04 Y8.19 Z0.94 F1830.0
G1 X0.02 Y8.35 Z0.94 F1830.0
G1 X0.2 Y8.53 Z0.94 F1830.0
G1 X0.36 Y8.59 Z0.94 F1830.0
G1 X8.1 Y8.59 Z0.94 F1830.0
G1 X8.27 Y8.66 Z0.94 F1830.0
G1 X8.44 Y8.83 Z0.94 F1830.0
G1 X8.51 Y8.99 Z0.94 F1830.0
G1 X8.51 Y16.74 Z0.94 F1830.0
G1 X8.57 Y16.9 Z0.94 F1830.0
G1 X8.74 Y17.07 Z0.94 F1830.0
G1 X8.9 Y17.16 Z0.94 F1830.0
G1 X14.94 Y18.68 Z0.94 F1830.0
G1 X15.13 Y18.7 Z0.94 F1830.0
G1 X16.65 Y18.7 Z0.94 F1830.0
G1 X16.82 Y18.76 Z0.94 F1830.0
G1 X17.52 Y19.25 Z0.94 F1830.0
G1 X17.5 Y19.31 Z0.94 F1830.0
G1 X9.28 Y19.31 Z0.94 F1830.0
G1 X9.15 Y19.22 Z0.94 F1830.0
G1 X8.54 Y17.53 Z0.94 F1830.0
G1 X8.44 Y17.38 Z0.94 F1830.0
G1 X8.27 Y17.2 Z0.94 F1830.0
G1 X8.2 Y17.23 Z0.94 F1830.0
G1 X8.19 Y19.21 Z0.94 F1830.0
G1 X8.1 Y19.31 Z0.94 F1830.0
G1 X4.87 Y19.31 Z0.94 F1830.0
G1 X4.69 Y19.27 Z0.94 F1830.0
G1 X0.2 Y17.33 Z0.94 F1830.0
G1 X0.04 Y17.23 Z0.94 F1830.0
G1 X-0.13 Y17.05 Z0.94 F1830.0
G1 X-0.19 Y16.89 Z0.94 F1830.0
G1 X-0.04 Y8.99 Z0.94 F1830.0
G1 X-0.11 Y8.83 Z0.94 F1830.0
G1 X-0.28 Y8.66 Z0.94 F1830.0
G1 X-0.44 Y8.59 Z0.94 F1830.0
G1 X-8.19 Y8.59 Z0.94 F1830.0
G1 X-8.35 Y8.53 Z0.94 F1830.0
G1 X-8.53 Y8.35 Z0.94 F1830.0
G1 X-8.59 Y8.19 Z0.94 F1830.0
G1 X-8.59 Y0.44 Z0.94 F1830.0
G1 X-8.66 Y0.28 Z0.94 F1830.0
G1 X-8.83 Y0.11 Z0.94 F1830.0
G1 X-8.99 Y0.04 Z0.94 F1830.0
G1 X-16.74 Y0.04 Z0.94 F1830.0
G1 X-16.9 Y-0.02 Z0.94 F1830.0
G1 X-17.07 Y-0.2 Z0.94 F1830.0
G1 X-17.18 Y-0.35 Z0.94 F1830.0
G1 X-19.45 Y-4.88 Z0.94 F1830.0
G1 X-19.5 Y-5.06 Z0.94 F1830.0
G1 X-19.5 Y-9.14 Z0.94 F1830.0
G1 X-19.53 Y-9.15 Z0.94 F1830.0
M103
G1 X-22.77 Y0.19 Z0.94 F3300.0
G1 X-22.73 Y0.21 Z0.94 F3300.0
M101
G1 X-19.88 Y-2.65 Z0.94 F1830.0
G1 X-19.76 Y-2.79 Z0.94 F1830.0
G1 X-19.54 Y-3.17 Z0.94 F1830.0
G1 X-19.5 Y-3.35 Z0.94 F1830.0
G1 X-19.5 Y-4.01 Z0.94 F1830.0
G1 X-19.45 Y-4.03 Z0.94 F1830.0
G1 X-17.49 Y-0.04 Z0.94 F1830.0
G1 X-17.38 Y0.11 Z0.94 F1830.0
G1 X-17.2 Y0.28 Z0.94 F1830.0
G1 X-17.14 Y0.44 Z0.94 F1830.0
G1 X-17.14 Y8.19 Z0.94 F1830.0
G1 X-17.07 Y8.35 Z0.94 F1830.0
G1 X-16.9 Y8.53 Z0.94 F1830.0
G1 X-16.74 Y8.59 Z0.94 F1830.0
G1 X-8.99 Y8.59 Z0.94 F1830.0
G1 X-8.83 Y8.66 Z0.94 F1830.0
G1 X-8.66 Y8.83 Z0.94 F1830.0
G1 X-8.59 Y8.99 Z0.94 F1830.0
G1 X-8.59 Y16.74 Z0.94 F1830.0
G1 X-8.53 Y16.9 Z0.94 F1830.0
G1 X-8.35 Y17.07 Z0.94 F1830.0
G1 X-8.19 Y17.16 Z0.94 F1830.0
G1 X-2.16 Y18.68 Z0.94 F1830.0
G1 X-1.97 Y18.7 Z0.94 F1830.0
G1 X2.97 Y18.7 Z0.94 F1830.0
G1 X3.14 Y18.76 Z0.94 F1830.0
G1 X3.84 Y19.25 Z0.94 F1830.0
G1 X3.82 Y19.31 Z0.94 F1830.0
G1 X-7.81 Y19.31 Z0.94 F1830.0
G1 X-7.94 Y19.22 Z0.94 F1830.0
G1 X-8.56 Y17.53 Z0.94 F1830.0
G1 X-8.66 Y17.38 Z0.94 F1830.0
G1 X-8.83 Y17.2 Z0.94 F1830.0
G1 X-8.9 Y17.23 Z0.94 F1830.0
G1 X-8.9 Y19.21 Z0.94 F1830.0
G1 X-9.0 Y19.31 Z0.94 F1830.0
G1 X-15.65 Y19.31 Z0.94 F1830.0
G1 X-15.79 Y19.23 Z0.94 F1830.0
G1 X-16.94 Y17.37 Z0.94 F1830.0
G1 X-17.05 Y17.23 Z0.94 F1830.0
G1 X-17.23 Y17.05 Z0.94 F1830.0
G1 X-17.29 Y16.89 Z0.94 F1830.0
G1 X-17.14 Y8.99 Z0.94 F1830.0
G1 X-17.2 Y8.83 Z0.94 F1830.0
G1 X-17.38 Y8.66 Z0.94 F1830.0
G1 X-17.54 Y8.59 Z0.94 F1830.0
G1 X-25.29 Y8.59 Z0.94 F1830.0
G1 X-25.45 Y8.53 Z0.94 F1830.0
G1 X-25.62 Y8.35 Z0.94 F1830.0
G1 X-25.66 Y8.19 Z0.94 F1830.0
G1 X-23.26 Y0.8 Z0.94 F1830.0
G1 X-23.29 Y0.78 Z0.94 F1830.0
G1 X-31.28 Y8.76 Z0.94 F1830.0
G1 X-31.25 Y8.82 Z0.94 F1830.0
G1 X-26.09 Y8.59 Z0.94 F1830.0
G1 X-25.93 Y8.66 Z0.94 F1830.0
G1 X-25.75 Y8.83 Z0.94 F1830.0
G1 X-25.69 Y8.99 Z0.94 F1830.0
G1 X-25.69 Y16.74 Z0.94 F1830.0
G1 X-25.62 Y16.9 Z0.94 F1830.0
G1 X-25.45 Y17.07 Z0.94 F1830.0
G1 X-25.29 Y17.16 Z0.94 F1830.0
G1 X-19.25 Y18.68 Z0.94 F1830.0
G1 X-19.07 Y18.7 Z0.94 F1830.0
G1 X-17.55 Y18.7 Z0.94 F1830.0
G1 X-17.37 Y18.76 Z0.94 F1830.0
G1 X-16.67 Y19.25 Z0.94 F1830.0
G1 X-16.69 Y19.31 Z0.94 F1830.0
G1 X-24.91 Y19.31 Z0.94 F1830.0
G1 X-25.04 Y19.22 Z0.94 F1830.0
G1 X-25.65 Y17.53 Z0.94 F1830.0
G1 X-25.75 Y17.38 Z0.94 F1830.0
G1 X-25.93 Y17.2 Z0.94 F1830.0
G1 X-25.99 Y17.23 Z0.94 F1830.0
G1 X-26.0 Y19.21 Z0.94 F1830.0
G1 X-26.09 Y19.31 Z0.94 F1830.0
G1 X-33.6 Y19.31 Z0.94 F1830.0
G1 X-33.71 Y19.21 Z0.94 F1830.0
G1 X-34.06 Y17.39 Z0.94 F1830.0
G1 X-34.15 Y17.23 Z0.94 F1830.0
G1 X-34.32 Y17.05 Z0.94 F1830.0
G1 X-34.36 Y16.9 Z0.94 F1830.0
G1 X-31.8 Y9.35 Z0.94 F1830.0
G1 X-31.84 Y9.32 Z0.94 F1830.0
G1 X-39.83 Y17.31 Z0.94 F1830.0
G1 X-39.8 Y17.4 Z0.94 F1830.0
G1 X-35.49 Y18.67 Z0.94 F1830.0
G1 X-35.32 Y18.76 Z0.94 F1830.0
G1 X-34.63 Y19.25 Z0.94 F1830.0
G1 X-34.64 Y19.31 Z0.94 F1830.0
G1 X-40.44 Y19.31 Z0.94 F1830.0
G1 X-40.52 Y19.21 Z0.94 F1830.0
G1 X-40.34 Y17.9 Z0.94 F1830.0
G1 X-40.39 Y17.87 Z0.94 F1830.0
G1 X-41.54 Y19.02 Z0.94 F1830.0
G1 X-41.54 Y19.15 Z0.94 F1830.0
G1 X-41.45 Y19.24 Z0.94 F1830.0
G1 X-41.4 Y19.39 Z0.97 F1830.0
M103
G1 X-41.48 Y20.17 Z1.28 F3300.0
G1 X-41.58 Y20.26 Z1.31 F3300.0
M101
G1 X-44.05 Y20.26 Z1.31 F1830.0
G1 X-44.07 Y20.24 Z1.31 F1830.0
G1 X-44.07 Y20.21 Z1.31 F1830.0
G1 X-20.51 Y-3.35 Z1.31 F1830.0
G1 X-20.45 Y-3.51 Z1.31 F1830.0
G1 X-20.45 Y-20.16 Z1.31 F1830.0
G1 X-20.35 Y-20.26 Z1.31 F1830.0
G1 X44.37 Y-20.26 Z1.31 F1830.0
G1 X44.47 Y-20.16 Z1.31 F1830.0
G1 X44.47 Y20.16 Z1.31 F1830.0
G1 X44.37 Y20.26 Z1.31 F1830.0
G1 X-41.19 Y20.26 Z1.31 F1830.0
G1 X-41.2 Y20.22 Z1.31 F1830.0
M103
G1 X11.44 Y1.45 Z1.31 F3300.0
G1 X11.6 Y1.48 Z1.31 F3300.0
M101
G1 X13.3 Y3.18 Z1.31 F1830.0
G1 X13.46 Y3.24 Z1.31 F1830.0
G1 X15.96 Y3.24 Z1.31 F1830.0
G1 X16.12 Y3.18 Z1.31 F1830.0
G1 X17.89 Y1.41 Z1.31 F1830.0
G1 X17.95 Y1.25 Z1.31 F1830.0
G1 X17.95 Y-1.25 Z1.31 F1830.0
G1 X17.89 Y-1.41 Z1.31 F1830.0
G1 X16.12 Y-3.18 Z1.31 F1830.0
G1 X15.96 Y-3.24 Z1.31 F1830.0
G1 X13.46 Y-3.24 Z1.31 F1830.0
G1 X13.3 Y-3.18 Z1.31 F1830.0
G1 X11.53 Y-1.41 Z1.31 F1830.0
G1 X11.46 Y-1.25 Z1.31 F1830.0
G1 X11.46 Y1.15 Z1.31 F1830.0
G1 X11.39 Y1.31 Z1.31 F1830.0
M103
G1 X11.09 Y1.56 Z1.31 F3300.0
G1 X11.09 Y1.69 Z1.31 F3300.0
M101
G1 X13.08 Y3.69 Z1.31 F1830.0
G1 X13.25 Y3.76 Z1.31 F1830.0
G1 X16.17 Y3.76 Z1.31 F1830.0
G1 X16.33 Y3.69 Z1.31 F1830.0
G1 X18.4 Y1.63 Z1.31 F1830.0
G1 X18.47 Y1.46 Z1.31 F1830.0
G1 X18.47 Y-1.46 Z1.31 F1830.0
G1 X18.4 Y-1.63 Z1.31 F1830.0
G1 X16.33 Y-3.69 Z1.31 F1830.0
G1 X16.17 Y-3.76 Z1.31 F1830.0
G1 X13.25 Y-3.76 Z1.31 F1830.0
G1 X13.08 Y-3.69 Z1.31 F1830.0
G1 X11.02 Y-1.63 Z1.31 F1830.0
G1 X10.95 Y-1.46 Z1.31 F1830.0
G1 X10.95 Y1.36 Z1.31 F1830.0
G1 X10.95 Y1.55 Z1.31 F1830.0
M103
G1 X10.85 Y19.64 Z1.31 F3300.0
G1 X10.76 Y19.74 Z1.31 F3300.0
M101
G1 X-42.34 Y19.74 Z1.31 F1830.0
G1 X-42.47 Y19.65 Z1.31 F1830.0
G1 X-42.53 Y19.52 Z1.31 F1830.0
G1 X-42.5 Y19.36 Z1.31 F1830.0
G1 X-20.0 Y-3.13 Z1.31 F1830.0
G1 X-19.93 Y-3.3 Z1.31 F1830.0
G1 X-19.93 Y-19.64 Z1.31 F1830.0
G1 X-19.84 Y-19.74 Z1.31 F1830.0
G1 X43.85 Y-19.74 Z1.31 F1830.0
G1 X43.95 Y-19.64 Z1.31 F1830.0
G1 X43.95 Y19.64 Z1.31 F1830.0
G1 X43.85 Y19.74 Z1.31 F1830.0
G1 X11.14 Y19.74 Z1.31 F1830.0
G1 X11.07 Y19.65 Z1.31 F1830.0
M103
G1 X15.44 Y4.29 Z1.31 F3300.0
G1 X15.37 Y4.19 Z1.31 F3300.0
M101
G1 X13.03 Y4.16 Z1.31 F1830.0
G1 X12.87 Y4.09 Z1.31 F1830.0
G1 X10.87 Y2.09 Z1.31 F1830.0
G1 X10.76 Y1.94 Z1.31 F1830.0
G1 X10.56 Y1.54 Z1.31 F1830.0
G1 X10.52 Y1.36 Z1.31 F1830.0
G1 X10.52 Y0.69 Z1.31 F1830.0
G1 X10.43 Y0.57 Z1.31 F1830.0
G1 X8.9 Y0.07 Z1.31 F1830.0
G1 X8.74 Y0.11 Z1.31 F1830.0
G1 X8.57 Y0.28 Z1.31 F1830.0
G1 X8.51 Y0.44 Z1.31 F1830.0
G1 X8.51 Y8.19 Z1.31 F1830.0
G1 X8.44 Y8.35 Z1.31 F1830.0
G1 X8.27 Y8.53 Z1.31 F1830.0
G1 X8.1 Y8.59 Z1.31 F1830.0
G1 X0.36 Y8.59 Z1.31 F1830.0
G1 X0.2 Y8.66 Z1.31 F1830.0
G1 X0.02 Y8.83 Z1.31 F1830.0
G1 X-0.04 Y8.99 Z1.31 F1830.0
G1 X-0.04 Y16.74 Z1.31 F1830.0
G1 X-0.11 Y16.9 Z1.31 F1830.0
G1 X-0.28 Y17.07 Z1.31 F1830.0
G1 X-0.32 Y17.23 Z1.31 F1830.0
G1 X0.33 Y19.21 Z1.31 F1830.0
G1 X0.26 Y19.31 Z1.31 F1830.0
G1 X-2.12 Y19.31 Z1.31 F1830.0
G1 X-2.29 Y19.25 Z1.31 F1830.0
G1 X-5.24 Y17.34 Z1.31 F1830.0
G1 X-5.42 Y17.29 Z1.31 F1830.0
G1 X-8.19 Y17.14 Z1.31 F1830.0
G1 X-8.35 Y17.2 Z1.31 F1830.0
G1 X-8.53 Y17.38 Z1.31 F1830.0
G1 X-8.5 Y17.47 Z1.31 F1830.0
G1 X-4.01 Y18.68 Z1.31 F1830.0
G1 X-3.84 Y18.76 Z1.31 F1830.0
G1 X-3.14 Y19.25 Z1.31 F1830.0
G1 X-3.16 Y19.31 Z1.31 F1830.0
G1 X-16.65 Y19.31 Z1.31 F1830.0
G1 X-16.76 Y19.21 Z1.31 F1830.0
G1 X-17.12 Y17.54 Z1.31 F1830.0
G1 X-17.07 Y17.38 Z1.31 F1830.0
G1 X-16.9 Y17.2 Z1.31 F1830.0
G1 X-16.74 Y17.14 Z1.31 F1830.0
G1 X-8.99 Y17.14 Z1.31 F1830.0
G1 X-8.83 Y17.07 Z1.31 F1830.0
G1 X-8.66 Y16.9 Z1.31 F1830.0
G1 X-8.59 Y16.74 Z1.31 F1830.0
G1 X-8.59 Y8.99 Z1.31 F1830.0
G1 X-8.53 Y8.83 Z1.31 F1830.0
G1 X-8.35 Y8.66 Z1.31 F1830.0
G1 X-8.19 Y8.59 Z1.31 F1830.0
G1 X-0.44 Y8.59 Z1.31 F1830.0
G1 X-0.28 Y8.53 Z1.31 F1830.0
G1 X-0.11 Y8.35 Z1.31 F1830.0
G1 X-0.04 Y8.19 Z1.31 F1830.0
G1 X-0.04 Y0.44 Z1.31 F1830.0
G1 X0.02 Y0.28 Z1.31 F1830.0
G1 X0.2 Y0.11 Z1.31 F1830.0
G1 X0.36 Y0.04 Z1.31 F1830.0
G1 X8.1 Y0.04 Z1.31 F1830.0
G1 X8.27 Y-0.02 Z1.31 F1830.0
G1 X8.44 Y-0.2 Z1.31 F1830.0
G1 X8.56 Y-0.34 Z1.31 F1830.0
G1 X9.12 Y-1.09 Z1.31 F1830.0
G1 X9.26 Y-1.11 Z1.31 F1830.0
G1 X10.44 Y-0.31 Z1.31 F1830.0
G1 X10.52 Y-0.35 Z1.31 F1830.0
G1 X10.52 Y-1.02 Z1.31 F1830.0
G1 X10.49 Y-1.2 Z1.31 F1830.0
G1 X8.53 Y-8.11 Z1.31 F1830.0
G1 X8.57 Y-8.27 Z1.31 F1830.0
G1 X8.74 Y-8.44 Z1.31 F1830.0
G1 X8.91 Y-8.51 Z1.31 F1830.0
G1 X14.79 Y-8.8 Z1.31 F1830.0
G1 X14.98 Y-8.79 Z1.31 F1830.0
G1 X16.65 Y-8.52 Z1.31 F1830.0
G1 X16.81 Y-8.57 Z1.31 F1830.0
G1 X16.99 Y-8.74 Z1.31 F1830.0
G1 X17.05 Y-8.91 Z1.31 F1830.0
G1 X17.05 Y-16.65 Z1.31 F1830.0
G1 X17.12 Y-16.81 Z1.31 F1830.0
G1 X17.29 Y-16.99 Z1.31 F1830.0
G1 X17.45 Y-17.08 Z1.31 F1830.0
G1 X23.49 Y-18.68 Z1.31 F1830.0
G1 X23.68 Y-18.7 Z1.31 F1830.0
G1 X28.61 Y-18.7 Z1.31 F1830.0
G1 X28.79 Y-18.76 Z1.31 F1830.0
G1 X29.49 Y-19.25 Z1.31 F1830.0
G1 X29.47 Y-19.31 Z1.31 F1830.0
G1 X17.86 Y-19.31 Z1.31 F1830.0
G1 X17.74 Y-19.22 Z1.31 F1830.0
G1 X17.09 Y-17.45 Z1.31 F1830.0
G1 X16.99 Y-17.29 Z1.31 F1830.0
G1 X16.81 Y-17.12 Z1.31 F1830.0
G1 X16.75 Y-17.15 Z1.31 F1830.0
G1 X16.74 Y-19.21 Z1.31 F1830.0
G1 X16.65 Y-19.31 Z1.31 F1830.0
G1 X10.0 Y-19.31 Z1.31 F1830.0
G1 X9.85 Y-19.22 Z1.31 F1830.0
G1 X8.71 Y-17.29 Z1.31 F1830.0
G1 X8.59 Y-17.14 Z1.31 F1830.0
G1 X8.42 Y-16.97 Z1.31 F1830.0
G1 X8.35 Y-16.8 Z1.31 F1830.0
G1 X8.5 Y-8.91 Z1.31 F1830.0
G1 X8.44 Y-8.74 Z1.31 F1830.0
G1 X8.27 Y-8.57 Z1.31 F1830.0
G1 X8.1 Y-8.51 Z1.31 F1830.0
G1 X0.36 Y-8.51 Z1.31 F1830.0
G1 X0.2 Y-8.44 Z1.31 F1830.0
G1 X0.02 Y-8.27 Z1.31 F1830.0
G1 X-0.04 Y-8.1 Z1.31 F1830.0
G1 X-0.04 Y-0.36 Z1.31 F1830.0
G1 X-0.11 Y-0.2 Z1.31 F1830.0
G1 X-0.28 Y-0.02 Z1.31 F1830.0
G1 X-0.44 Y0.04 Z1.31 F1830.0
G1 X-8.19 Y0.04 Z1.31 F1830.0
G1 X-8.35 Y0.11 Z1.31 F1830.0
G1 X-8.53 Y0.28 Z1.31 F1830.0
G1 X-8.59 Y0.44 Z1.31 F1830.0
G1 X-8.59 Y8.19 Z1.31 F1830.0
G1 X-8.66 Y8.35 Z1.31 F1830.0
G1 X-8.83 Y8.53 Z1.31 F1830.0
G1 X-8.99 Y8.59 Z1.31 F1830.0
G1 X-16.74 Y8.59 Z1.31 F1830.0
G1 X-16.9 Y8.66 Z1.31 F1830.0
G1 X-17.07 Y8.83 Z1.31 F1830.0
G1 X-17.14 Y8.99 Z1.31 F1830.0
G1 X-17.14 Y16.74 Z1.31 F1830.0
G1 X-17.2 Y16.9 Z1.31 F1830.0
G1 X-17.38 Y17.07 Z1.31 F1830.0
G1 X-17.45 Y17.23 Z1.31 F1830.0
G1 X-17.59 Y19.21 Z1.31 F1830.0
G1 X-17.69 Y19.31 Z1.31 F1830.0
G1 X-19.21 Y19.31 Z1.31 F1830.0
G1 X-19.39 Y19.25 Z1.31 F1830.0
G1 X-22.34 Y17.34 Z1.31 F1830.0
G1 X-22.52 Y17.29 Z1.31 F1830.0
G1 X-25.29 Y17.14 Z1.31 F1830.0
G1 X-25.45 Y17.2 Z1.31 F1830.0
G1 X-25.62 Y17.38 Z1.31 F1830.0
G1 X-25.6 Y17.47 Z1.31 F1830.0
G1 X-21.11 Y18.68 Z1.31 F1830.0
G1 X-20.94 Y18.76 Z1.31 F1830.0
G1 X-20.24 Y19.25 Z1.31 F1830.0
G1 X-20.26 Y19.31 Z1.31 F1830.0
G1 X-34.6 Y19.31 Z1.31 F1830.0
G1 X-34.67 Y19.21 Z1.31 F1830.0
G1 X-34.26 Y17.54 Z1.31 F1830.0
G1 X-34.17 Y17.38 Z1.31 F1830.0
G1 X-34.0 Y17.2 Z1.31 F1830.0
G1 X-33.83 Y17.14 Z1.31 F1830.0
G1 X-26.09 Y17.14 Z1.31 F1830.0
G1 X-25.93 Y17.07 Z1.31 F1830.0
G1 X-25.75 Y16.9 Z1.31 F1830.0
G1 X-25.69 Y16.74 Z1.31 F1830.0
G1 X-25.69 Y8.99 Z1.31 F1830.0
G1 X-25.62 Y8.83 Z1.31 F1830.0
G1 X-25.45 Y8.66 Z1.31 F1830.0
G1 X-25.29 Y8.59 Z1.31 F1830.0
G1 X-17.54 Y8.59 Z1.31 F1830.0
G1 X-17.38 Y8.53 Z1.31 F1830.0
G1 X-17.2 Y8.35 Z1.31 F1830.0
G1 X-17.14 Y8.19 Z1.31 F1830.0
G1 X-17.14 Y0.44 Z1.31 F1830.0
G1 X-17.07 Y0.28 Z1.31 F1830.0
G1 X-16.9 Y0.11 Z1.31 F1830.0
G1 X-16.74 Y0.04 Z1.31 F1830.0
G1 X-8.99 Y0.04 Z1.31 F1830.0
G1 X-8.83 Y-0.02 Z1.31 F1830.0
G1 X-8.66 Y-0.2 Z1.31 F1830.0
G1 X-8.59 Y-0.36 Z1.31 F1830.0
G1 X-8.59 Y-8.1 Z1.31 F1830.0
G1 X-8.53 Y-8.27 Z1.31 F1830.0
G1 X-8.35 Y-8.44 Z1.31 F1830.0
G1 X-8.19 Y-8.51 Z1.31 F1830.0
G1 X-0.44 Y-8.51 Z1.31 F1830.0
G1 X-0.28 Y-8.57 Z1.31 F1830.0
G1 X-0.11 Y-8.74 Z1.31 F1830.0
G1 X-0.04 Y-8.91 Z1.31 F1830.0
G1 X-0.04 Y-16.65 Z1.31 F1830.0
G1 X0.02 Y-16.81 Z1.31 F1830.0
G1 X0.2 Y-16.99 Z1.31 F1830.0
G1 X0.35 Y-17.08 Z1.31 F1830.0
G1 X6.39 Y-18.68 Z1.31 F1830.0
G1 X6.58 Y-18.7 Z1.31 F1830.0
G1 X8.1 Y-18.7 Z1.31 F1830.0
G1 X8.27 Y-18.76 Z1.31 F1830.0
G1 X8.97 Y-19.25 Z1.31 F1830.0
G1 X8.95 Y-19.31 Z1.31 F1830.0
G1 X0.77 Y-19.31 Z1.31 F1830.0
G1 X0.64 Y-19.22 Z1.31 F1830.0
G1 X-0.01 Y-17.45 Z1.31 F1830.0
G1 X-0.11 Y-17.29 Z1.31 F1830.0
G1 X-0.28 Y-17.12 Z1.31 F1830.0
G1 X-0.35 Y-17.15 Z1.31 F1830.0
G1 X-0.35 Y-19.21 Z1.31 F1830.0
G1 X-0.45 Y-19.31 Z1.31 F1830.0
G1 X-3.68 Y-19.31 Z1.31 F1830.0
G1 X-3.86 Y-19.27 Z1.31 F1830.0
G1 X-8.35 Y-17.25 Z1.31 F1830.0
G1 X-8.5 Y-17.14 Z1.31 F1830.0
G1 X-8.68 Y-16.97 Z1.31 F1830.0
G1 X-8.74 Y-16.8 Z1.31 F1830.0
G1 X-8.59 Y-8.91 Z1.31 F1830.0
G1 X-8.66 Y-8.74 Z1.31 F1830.0
G1 X-8.83 Y-8.57 Z1.31 F1830.0
G1 X-8.99 Y-8.51 Z1.31 F1830.0
G1 X-16.89 Y-8.66 Z1.31 F1830.0
G1 X-17.05 Y-8.59 Z1.31 F1830.0
G1 X-17.23 Y-8.42 Z1.31 F1830.0
G1 X-17.29 Y-8.26 Z1.31 F1830.0
G1 X-17.14 Y-0.36 Z1.31 F1830.0
G1 X-17.2 Y-0.2 Z1.31 F1830.0
G1 X-17.38 Y-0.02 Z1.31 F1830.0
G1 X-17.54 Y0.04 Z1.31 F1830.0
G1 X-22.02 Y-0.11 Z1.31 F1830.0
G1 X-22.18 Y-0.04 Z1.31 F1830.0
G1 X-25.77 Y3.55 Z1.31 F1830.0
G1 X-25.84 Y3.71 Z1.31 F1830.0
G1 X-25.69 Y8.19 Z1.31 F1830.0
G1 X-25.75 Y8.35 Z1.31 F1830.0
G1 X-25.93 Y8.53 Z1.31 F1830.0
G1 X-26.09 Y8.59 Z1.31 F1830.0
G1 X-30.57 Y8.44 Z1.31 F1830.0
G1 X-30.73 Y8.51 Z1.31 F1830.0
G1 X-34.32 Y12.1 Z1.31 F1830.0
G1 X-34.38 Y12.26 Z1.31 F1830.0
G1 X-34.24 Y16.74 Z1.31 F1830.0
G1 X-34.3 Y16.9 Z1.31 F1830.0
G1 X-34.48 Y17.07 Z1.31 F1830.0
G1 X-34.64 Y17.14 Z1.31 F1830.0
G1 X-39.12 Y16.99 Z1.31 F1830.0
G1 X-39.13 Y17.04 Z1.31 F1830.0
G1 X-35.63 Y19.25 Z1.31 F1830.0
G1 X-35.64 Y19.31 Z1.31 F1830.0
G1 X-41.44 Y19.31 Z1.31 F1830.0
G1 X-41.47 Y19.24 Z1.31 F1830.0
M103
G1 X-19.56 Y-3.51 Z1.31 F3300.0
G1 X-19.5 Y-3.68 Z1.31 F3300.0
M101
G1 X-19.5 Y-15.46 Z1.31 F1830.0
G1 X-19.42 Y-15.6 Z1.31 F1830.0
G1 X-17.37 Y-16.85 Z1.31 F1830.0
G1 X-17.23 Y-16.97 Z1.31 F1830.0
G1 X-17.05 Y-17.14 Z1.31 F1830.0
G1 X-16.89 Y-17.23 Z1.31 F1830.0
G1 X-10.71 Y-18.68 Z1.31 F1830.0
G1 X-10.52 Y-18.7 Z1.31 F1830.0
G1 X-5.58 Y-18.7 Z1.31 F1830.0
G1 X-5.41 Y-18.76 Z1.31 F1830.0
G1 X-4.71 Y-19.25 Z1.31 F1830.0
G1 X-4.72 Y-19.31 Z1.31 F1830.0
G1 X-19.07 Y-19.31 Z1.31 F1830.0
G1 X-19.23 Y-19.24 Z1.31 F1830.0
G1 X-19.43 Y-19.04 Z1.31 F1830.0
G1 X-19.5 Y-18.88 Z1.31 F1830.0
G1 X-19.5 Y-16.5 Z1.31 F1830.0
G1 X-19.41 Y-16.36 Z1.31 F1830.0
M103
G1 X43.43 Y17.99 Z1.31 F3300.0
G1 X43.52 Y18.13 Z1.31 F3300.0
M101
G1 X43.52 Y18.79 Z1.31 F1830.0
G1 X43.45 Y18.95 Z1.31 F1830.0
G1 X43.16 Y19.24 Z1.31 F1830.0
G1 X43.0 Y19.31 Z1.31 F1830.0
G1 X34.64 Y19.31 Z1.31 F1830.0
G1 X34.53 Y19.21 Z1.31 F1830.0
G1 X34.17 Y17.54 Z1.31 F1830.0
G1 X34.22 Y17.38 Z1.31 F1830.0
G1 X34.39 Y17.2 Z1.31 F1830.0
G1 X34.55 Y17.14 Z1.31 F1830.0
G1 X42.45 Y17.29 Z1.31 F1830.0
G1 X42.61 Y17.23 Z1.31 F1830.0
G1 X42.78 Y17.05 Z1.31 F1830.0
G1 X42.94 Y17.01 Z1.31 F1830.0
G1 X43.42 Y17.15 Z1.31 F1830.0
G1 X43.52 Y17.08 Z1.31 F1830.0
G1 X43.52 Y9.58 Z1.31 F1830.0
G1 X43.44 Y9.43 Z1.31 F1830.0
G1 X42.62 Y8.8 Z1.31 F1830.0
G1 X42.61 Y8.68 Z1.31 F1830.0
G1 X42.78 Y8.5 Z1.31 F1830.0
G1 X42.94 Y8.46 Z1.31 F1830.0
G1 X43.42 Y8.6 Z1.31 F1830.0
G1 X43.52 Y8.53 Z1.31 F1830.0
G1 X43.52 Y1.89 Z1.31 F1830.0
G1 X43.44 Y1.85 Z1.31 F1830.0
G1 X34.23 Y8.84 Z1.31 F1830.0
G1 X34.15 Y8.99 Z1.31 F1830.0
G1 X34.15 Y16.74 Z1.31 F1830.0
G1 X34.08 Y16.9 Z1.31 F1830.0
G1 X33.91 Y17.07 Z1.31 F1830.0
G1 X33.84 Y17.23 Z1.31 F1830.0
G1 X33.7 Y19.21 Z1.31 F1830.0
G1 X33.6 Y19.31 Z1.31 F1830.0
G1 X32.08 Y19.31 Z1.31 F1830.0
G1 X31.9 Y19.25 Z1.31 F1830.0
G1 X28.95 Y17.34 Z1.31 F1830.0
G1 X28.77 Y17.29 Z1.31 F1830.0
G1 X26.0 Y17.14 Z1.31 F1830.0
G1 X25.84 Y17.2 Z1.31 F1830.0
G1 X25.67 Y17.38 Z1.31 F1830.0
G1 X25.69 Y17.47 Z1.31 F1830.0
G1 X30.18 Y18.68 Z1.31 F1830.0
G1 X30.35 Y18.76 Z1.31 F1830.0
G1 X31.05 Y19.25 Z1.31 F1830.0
G1 X31.03 Y19.31 Z1.31 F1830.0
G1 X17.55 Y19.31 Z1.31 F1830.0
G1 X17.43 Y19.21 Z1.31 F1830.0
G1 X17.07 Y17.54 Z1.31 F1830.0
G1 X17.12 Y17.38 Z1.31 F1830.0
G1 X17.29 Y17.2 Z1.31 F1830.0
G1 X17.45 Y17.14 Z1.31 F1830.0
G1 X25.2 Y17.14 Z1.31 F1830.0
G1 X25.36 Y17.07 Z1.31 F1830.0
G1 X25.54 Y16.9 Z1.31 F1830.0
G1 X25.6 Y16.74 Z1.31 F1830.0
G1 X25.6 Y8.99 Z1.31 F1830.0
G1 X25.67 Y8.83 Z1.31 F1830.0
G1 X25.84 Y8.66 Z1.31 F1830.0
G1 X26.0 Y8.59 Z1.31 F1830.0
G1 X33.75 Y8.59 Z1.31 F1830.0
G1 X33.91 Y8.53 Z1.31 F1830.0
G1 X34.08 Y8.35 Z1.31 F1830.0
G1 X34.15 Y8.19 Z1.31 F1830.0
G1 X34.15 Y0.44 Z1.31 F1830.0
G1 X34.22 Y0.28 Z1.31 F1830.0
G1 X34.39 Y0.11 Z1.31 F1830.0
G1 X34.55 Y0.04 Z1.31 F1830.0
G1 X42.45 Y0.19 Z1.31 F1830.0
G1 X42.61 Y0.13 Z1.31 F1830.0
G1 X42.78 Y-0.04 Z1.31 F1830.0
G1 X42.9 Y-0.03 Z1.31 F1830.0
G1 X43.46 Y0.85 Z1.31 F1830.0
G1 X43.52 Y0.84 Z1.31 F1830.0
G1 X43.52 Y-7.52 Z1.31 F1830.0
G1 X43.44 Y-7.67 Z1.31 F1830.0
G1 X42.62 Y-8.29 Z1.31 F1830.0
G1 X42.61 Y-8.42 Z1.31 F1830.0
G1 X42.78 Y-8.59 Z1.31 F1830.0
G1 X42.94 Y-8.63 Z1.31 F1830.0
G1 X43.42 Y-8.49 Z1.31 F1830.0
G1 X43.52 Y-8.56 Z1.31 F1830.0
G1 X43.52 Y-14.36 Z1.31 F1830.0
G1 X43.44 Y-14.4 Z1.31 F1830.0
G1 X34.54 Y-8.56 Z1.31 F1830.0
G1 X34.39 Y-8.44 Z1.31 F1830.0
G1 X34.22 Y-8.27 Z1.31 F1830.0
G1 X34.15 Y-8.1 Z1.31 F1830.0
G1 X34.15 Y-0.36 Z1.31 F1830.0
G1 X34.08 Y-0.2 Z1.31 F1830.0
G1 X33.91 Y-0.02 Z1.31 F1830.0
G1 X33.75 Y0.04 Z1.31 F1830.0
G1 X26.0 Y0.04 Z1.31 F1830.0
G1 X25.84 Y0.11 Z1.31 F1830.0
G1 X25.67 Y0.28 Z1.31 F1830.0
G1 X25.6 Y0.44 Z1.31 F1830.0
G1 X25.6 Y8.19 Z1.31 F1830.0
G1 X25.54 Y8.35 Z1.31 F1830.0
G1 X25.36 Y8.53 Z1.31 F1830.0
G1 X25.2 Y8.59 Z1.31 F1830.0
G1 X17.45 Y8.59 Z1.31 F1830.0
G1 X17.29 Y8.66 Z1.31 F1830.0
G1 X17.12 Y8.83 Z1.31 F1830.0
G1 X17.05 Y8.99 Z1.31 F1830.0
G1 X17.05 Y16.74 Z1.31 F1830.0
G1 X16.99 Y16.9 Z1.31 F1830.0
G1 X16.81 Y17.07 Z1.31 F1830.0
G1 X16.74 Y17.23 Z1.31 F1830.0
G1 X16.6 Y19.21 Z1.31 F1830.0
G1 X16.5 Y19.31 Z1.31 F1830.0
G1 X14.98 Y19.31 Z1.31 F1830.0
G1 X14.81 Y19.25 Z1.31 F1830.0
G1 X11.85 Y17.34 Z1.31 F1830.0
G1 X11.68 Y17.29 Z1.31 F1830.0
G1 X8.91 Y17.14 Z1.31 F1830.0
G1 X8.74 Y17.2 Z1.31 F1830.0
G1 X8.57 Y17.38 Z1.31 F1830.0
G1 X8.6 Y17.47 Z1.31 F1830.0
G1 X13.09 Y18.68 Z1.31 F1830.0
G1 X13.26 Y18.76 Z1.31 F1830.0
G1 X13.95 Y19.25 Z1.31 F1830.0
G1 X13.94 Y19.31 Z1.31 F1830.0
G1 X1.3 Y19.31 Z1.31 F1830.0
G1 X1.16 Y19.23 Z1.31 F1830.0
G1 X0.01 Y17.52 Z1.31 F1830.0
G1 X0.02 Y17.38 Z1.31 F1830.0
G1 X0.2 Y17.2 Z1.31 F1830.0
G1 X0.36 Y17.14 Z1.31 F1830.0
G1 X8.1 Y17.14 Z1.31 F1830.0
G1 X8.27 Y17.07 Z1.31 F1830.0
G1 X8.44 Y16.9 Z1.31 F1830.0
G1 X8.51 Y16.74 Z1.31 F1830.0
G1 X8.51 Y8.99 Z1.31 F1830.0
G1 X8.57 Y8.83 Z1.31 F1830.0
G1 X8.74 Y8.66 Z1.31 F1830.0
G1 X8.91 Y8.59 Z1.31 F1830.0
G1 X16.65 Y8.59 Z1.31 F1830.0
G1 X16.81 Y8.53 Z1.31 F1830.0
G1 X16.99 Y8.35 Z1.31 F1830.0
G1 X17.04 Y8.19 Z1.31 F1830.0
G1 X16.34 Y4.29 Z1.31 F1830.0
G1 X16.39 Y4.13 Z1.31 F1830.0
G1 X18.84 Y1.68 Z1.31 F1830.0
G1 X18.9 Y1.52 Z1.31 F1830.0
G1 X18.9 Y-0.86 Z1.31 F1830.0
G1 X19.0 Y-0.94 Z1.31 F1830.0
G1 X25.2 Y0.03 Z1.31 F1830.0
G1 X25.36 Y-0.02 Z1.31 F1830.0
G1 X25.54 Y-0.2 Z1.31 F1830.0
G1 X25.6 Y-0.36 Z1.31 F1830.0
G1 X25.6 Y-8.1 Z1.31 F1830.0
G1 X25.67 Y-8.27 Z1.31 F1830.0
G1 X25.84 Y-8.44 Z1.31 F1830.0
G1 X26.0 Y-8.51 Z1.31 F1830.0
G1 X33.75 Y-8.51 Z1.31 F1830.0
G1 X33.91 Y-8.57 Z1.31 F1830.0
G1 X34.08 Y-8.74 Z1.31 F1830.0
G1 X34.15 Y-8.91 Z1.31 F1830.0
G1 X34.15 Y-16.65 Z1.31 F1830.0
G1 X34.22 Y-16.81 Z1.31 F1830.0
G1 X34.39 Y-16.99 Z1.31 F1830.0
G1 X34.55 Y-17.08 Z1.31 F1830.0
G1 X40.58 Y-18.68 Z1.31 F1830.0
G1 X40.77 Y-18.7 Z1.31 F1830.0
G1 X42.29 Y-18.7 Z1.31 F1830.0
G1 X42.41 Y-18.61 Z1.31 F1830.0
G1 X42.89 Y-16.25 Z1.31 F1830.0
G1 X42.97 Y-16.08 Z1.31 F1830.0
G1 X43.46 Y-15.38 Z1.31 F1830.0
G1 X43.52 Y-15.4 Z1.31 F1830.0
G1 X43.52 Y-18.63 Z1.31 F1830.0
G1 X43.47 Y-18.81 Z1.31 F1830.0
G1 X43.28 Y-19.22 Z1.31 F1830.0
G1 X43.15 Y-19.31 Z1.31 F1830.0
G1 X34.96 Y-19.31 Z1.31 F1830.0
G1 X34.83 Y-19.22 Z1.31 F1830.0
G1 X34.18 Y-17.45 Z1.31 F1830.0
G1 X34.08 Y-17.29 Z1.31 F1830.0
G1 X33.91 Y-17.12 Z1.31 F1830.0
G1 X33.84 Y-17.15 Z1.31 F1830.0
G1 X33.84 Y-19.21 Z1.31 F1830.0
G1 X33.74 Y-19.31 Z1.31 F1830.0
G1 X30.51 Y-19.31 Z1.31 F1830.0
G1 X30.33 Y-19.27 Z1.31 F1830.0
G1 X25.84 Y-17.25 Z1.31 F1830.0
G1 X25.69 Y-17.14 Z1.31 F1830.0
G1 X25.52 Y-16.97 Z1.31 F1830.0
G1 X25.45 Y-16.8 Z1.31 F1830.0
G1 X25.6 Y-8.91 Z1.31 F1830.0
G1 X25.54 Y-8.74 Z1.31 F1830.0
G1 X25.36 Y-8.57 Z1.31 F1830.0
G1 X25.2 Y-8.51 Z1.31 F1830.0
G1 X17.45 Y-8.51 Z1.31 F1830.0
G1 X17.29 Y-8.44 Z1.31 F1830.0
G1 X17.12 Y-8.27 Z1.31 F1830.0
G1 X17.08 Y-8.11 Z1.31 F1830.0
G1 X18.84 Y-1.86 Z1.31 F1830.0
G1 X18.8 Y-1.84 Z1.31 F1830.0
G1 X16.8 Y-3.84 Z1.31 F1830.0
G1 X16.65 Y-3.95 Z1.31 F1830.0
G1 X16.25 Y-4.15 Z1.31 F1830.0
G1 X16.07 Y-4.19 Z1.31 F1830.0
G1 X13.69 Y-4.19 Z1.31 F1830.0
G1 X13.6 Y-4.29 Z1.31 F1830.0
M103
G1 X13.69 Y-20.16 Z1.69 F3300.0
G1 X13.79 Y-20.26 Z1.69 F3300.0
M101
G1 X44.37 Y-20.26 Z1.69 F1830.0
G1 X44.47 Y-20.16 Z1.69 F1830.0
G1 X44.47 Y20.16 Z1.69 F1830.0
G1 X44.37 Y20.26 Z1.69 F1830.0
G1 X-44.05 Y20.26 Z1.69 F1830.0
G1 X-44.07 Y20.24 Z1.69 F1830.0
G1 X-44.07 Y20.21 Z1.69 F1830.0
G1 X-20.51 Y-3.35 Z1.69 F1830.0
G1 X-20.45 Y-3.51 Z1.69 F1830.0
G1 X-20.45 Y-20.16 Z1.69 F1830.0
G1 X-20.35 Y-20.26 Z1.69 F1830.0
G1 X13.4 Y-20.26 Z1.69 F1830.0
G1 X13.5 Y-20.16 Z1.69 F1830.0
M103
G1 X13.3 Y-3.27 Z1.69 F3300.0
G1 X13.23 Y-3.11 Z1.69 F3300.0
M101
G1 X11.53 Y-1.41 Z1.69 F1830.0
G1 X11.46 Y-1.25 Z1.69 F1830.0
G1 X11.46 Y1.25 Z1.69 F1830.0
G1 X11.53 Y1.41 Z1.69 F1830.0
G1 X13.3 Y3.18 Z1.69 F1830.0
G1 X13.46 Y3.24 Z1.69 F1830.0
G1 X15.96 Y3.24 Z1.69 F1830.0
G1 X16.12 Y3.18 Z1.69 F1830.0
G1 X17.89 Y1.41 Z1.69 F1830.0
G1 X17.95 Y1.25 Z1.69 F1830.0
G1 X17.95 Y-1.25 Z1.69 F1830.0
G1 X17.89 Y-1.41 Z1.69 F1830.0
G1 X16.12 Y-3.18 Z1.69 F1830.0
G1 X15.96 Y-3.24 Z1.69 F1830.0
G1 X13.56 Y-3.24 Z1.69 F1830.0
G1 X13.4 Y-3.32 Z1.69 F1830.0
M103
G1 X13.14 Y-3.62 Z1.69 F3300.0
G1 X13.02 Y-3.62 Z1.69 F3300.0
M101
G1 X11.02 Y-1.63 Z1.69 F1830.0
G1 X10.95 Y-1.46 Z1.69 F1830.0
G1 X10.95 Y1.46 Z1.69 F1830.0
G1 X11.02 Y1.63 Z1.69 F1830.0
G1 X13.08 Y3.69 Z1.69 F1830.0
G1 X13.25 Y3.76 Z1.69 F1830.0
G1 X16.17 Y3.76 Z1.69 F1830.0
G1 X16.33 Y3.69 Z1.69 F1830.0
G1 X18.4 Y1.63 Z1.69 F1830.0
G1 X18.47 Y1.46 Z1.69 F1830.0
G1 X18.47 Y-1.46 Z1.69 F1830.0
G1 X18.4 Y-1.63 Z1.69 F1830.0
G1 X16.33 Y-3.69 Z1.69 F1830.0
G1 X16.17 Y-3.76 Z1.69 F1830.0
G1 X13.34 Y-3.76 Z1.69 F1830.0
G1 X13.25 Y-3.85 Z1.69 F1830.0
M103
G1 X13.25 Y-19.64 Z1.69 F3300.0
G1 X13.34 Y-19.74 Z1.69 F3300.0
M101
G1 X43.85 Y-19.74 Z1.69 F1830.0
G1 X43.95 Y-19.64 Z1.69 F1830.0
G1 X43.95 Y19.64 Z1.69 F1830.0
G1 X43.85 Y19.74 Z1.69 F1830.0
G1 X-42.34 Y19.74 Z1.69 F1830.0
G1 X-42.47 Y19.65 Z1.69 F1830.0
G1 X-42.53 Y19.52 Z1.69 F1830.0
G1 X-42.5 Y19.36 Z1.69 F1830.0
G1 X-20.0 Y-3.13 Z1.69 F1830.0
G1 X-19.93 Y-3.3 Z1.69 F1830.0
G1 X-19.93 Y-19.64 Z1.69 F1830.0
G1 X-19.84 Y-19.74 Z1.69 F1830.0
G1 X12.96 Y-19.74 Z1.69 F1830.0
G1 X13.15 Y-19.74 Z1.69 F1830.0
M103
G1 X42.15 Y-19.31 Z1.69 F3300.0
G1 X42.34 Y-19.31 Z1.69 F3300.0
M101
G1 X43.0 Y-19.31 Z1.69 F1830.0
G1 X43.16 Y-19.24 Z1.69 F1830.0
G1 X43.45 Y-18.95 Z1.69 F1830.0
G1 X43.52 Y-18.79 Z1.69 F1830.0
G1 X43.52 Y-18.13 Z1.69 F1830.0
G1 X43.44 Y-17.97 Z1.69 F1830.0
G1 X42.62 Y-17.27 Z1.69 F1830.0
G1 X42.61 Y-17.14 Z1.69 F1830.0
G1 X42.78 Y-16.97 Z1.69 F1830.0
G1 X42.94 Y-16.94 Z1.69 F1830.0
G1 X43.43 Y-17.14 Z1.69 F1830.0
G1 X43.52 Y-17.08 Z1.69 F1830.0
G1 X43.52 Y-10.43 Z1.69 F1830.0
G1 X43.45 Y-10.41 Z1.69 F1830.0
G1 X37.56 Y-17.13 Z1.69 F1830.0
G1 X37.41 Y-17.2 Z1.69 F1830.0
G1 X34.55 Y-17.06 Z1.69 F1830.0
G1 X34.39 Y-17.12 Z1.69 F1830.0
G1 X34.22 Y-17.29 Z1.69 F1830.0
G1 X34.24 Y-17.39 Z1.69 F1830.0
G1 X38.73 Y-18.68 Z1.69 F1830.0
G1 X38.92 Y-18.7 Z1.69 F1830.0
G1 X40.44 Y-18.7 Z1.69 F1830.0
G1 X40.61 Y-18.76 Z1.69 F1830.0
G1 X41.31 Y-19.25 Z1.69 F1830.0
G1 X41.29 Y-19.31 Z1.69 F1830.0
G1 X25.24 Y-19.31 Z1.69 F1830.0
G1 X25.17 Y-19.21 Z1.69 F1830.0
G1 X25.58 Y-17.45 Z1.69 F1830.0
G1 X25.67 Y-17.29 Z1.69 F1830.0
G1 X25.84 Y-17.12 Z1.69 F1830.0
G1 X26.0 Y-17.05 Z1.69 F1830.0
G1 X33.75 Y-17.05 Z1.69 F1830.0
G1 X33.91 Y-16.99 Z1.69 F1830.0
G1 X34.08 Y-16.81 Z1.69 F1830.0
G1 X34.15 Y-16.65 Z1.69 F1830.0
G1 X34.15 Y-8.91 Z1.69 F1830.0
G1 X34.22 Y-8.74 Z1.69 F1830.0
G1 X34.39 Y-8.57 Z1.69 F1830.0
G1 X34.55 Y-8.51 Z1.69 F1830.0
G1 X42.45 Y-8.66 Z1.69 F1830.0
G1 X42.61 Y-8.59 Z1.69 F1830.0
G1 X42.78 Y-8.42 Z1.69 F1830.0
G1 X42.9 Y-8.43 Z1.69 F1830.0
G1 X43.47 Y-9.4 Z1.69 F1830.0
G1 X43.52 Y-9.39 Z1.69 F1830.0
G1 X43.52 Y-1.03 Z1.69 F1830.0
G1 X43.44 Y-0.87 Z1.69 F1830.0
G1 X42.62 Y-0.17 Z1.69 F1830.0
G1 X42.61 Y-0.04 Z1.69 F1830.0
G1 X42.78 Y0.13 Z1.69 F1830.0
G1 X42.94 Y0.16 Z1.69 F1830.0
G1 X43.43 Y-0.04 Z1.69 F1830.0
G1 X43.52 Y0.01 Z1.69 F1830.0
G1 X43.52 Y6.66 Z1.69 F1830.0
G1 X43.44 Y6.7 Z1.69 F1830.0
G1 X34.53 Y0.1 Z1.69 F1830.0
G1 X34.39 Y-0.02 Z1.69 F1830.0
G1 X34.22 Y-0.2 Z1.69 F1830.0
G1 X34.15 Y-0.36 Z1.69 F1830.0
G1 X34.15 Y-8.1 Z1.69 F1830.0
G1 X34.08 Y-8.27 Z1.69 F1830.0
G1 X33.91 Y-8.44 Z1.69 F1830.0
G1 X33.75 Y-8.51 Z1.69 F1830.0
G1 X26.0 Y-8.51 Z1.69 F1830.0
G1 X25.84 Y-8.57 Z1.69 F1830.0
G1 X25.67 Y-8.74 Z1.69 F1830.0
G1 X25.6 Y-8.91 Z1.69 F1830.0
G1 X25.6 Y-16.65 Z1.69 F1830.0
G1 X25.54 Y-16.81 Z1.69 F1830.0
G1 X25.36 Y-16.99 Z1.69 F1830.0
G1 X25.2 Y-17.05 Z1.69 F1830.0
G1 X17.45 Y-17.05 Z1.69 F1830.0
G1 X17.29 Y-17.12 Z1.69 F1830.0
G1 X17.12 Y-17.29 Z1.69 F1830.0
G1 X17.14 Y-17.39 Z1.69 F1830.0
G1 X21.63 Y-18.68 Z1.69 F1830.0
G1 X21.82 Y-18.7 Z1.69 F1830.0
G1 X23.34 Y-18.7 Z1.69 F1830.0
G1 X23.51 Y-18.76 Z1.69 F1830.0
G1 X24.21 Y-19.25 Z1.69 F1830.0
G1 X24.2 Y-19.31 Z1.69 F1830.0
G1 X8.14 Y-19.31 Z1.69 F1830.0
G1 X8.07 Y-19.21 Z1.69 F1830.0
G1 X8.48 Y-17.45 Z1.69 F1830.0
G1 X8.57 Y-17.29 Z1.69 F1830.0
G1 X8.74 Y-17.12 Z1.69 F1830.0
G1 X8.91 Y-17.05 Z1.69 F1830.0
G1 X16.65 Y-17.05 Z1.69 F1830.0
G1 X16.81 Y-16.99 Z1.69 F1830.0
G1 X16.99 Y-16.81 Z1.69 F1830.0
G1 X17.05 Y-16.65 Z1.69 F1830.0
G1 X17.05 Y-8.91 Z1.69 F1830.0
G1 X17.12 Y-8.74 Z1.69 F1830.0
G1 X17.29 Y-8.57 Z1.69 F1830.0
G1 X17.45 Y-8.51 Z1.69 F1830.0
G1 X25.2 Y-8.51 Z1.69 F1830.0
G1 X25.36 Y-8.44 Z1.69 F1830.0
G1 X25.54 Y-8.27 Z1.69 F1830.0
G1 X25.6 Y-8.1 Z1.69 F1830.0
G1 X25.6 Y-0.36 Z1.69 F1830.0
G1 X25.67 Y-0.2 Z1.69 F1830.0
G1 X25.84 Y-0.02 Z1.69 F1830.0
G1 X26.0 Y0.04 Z1.69 F1830.0
G1 X33.75 Y0.04 Z1.69 F1830.0
G1 X33.91 Y0.11 Z1.69 F1830.0
G1 X34.08 Y0.28 Z1.69 F1830.0
G1 X34.15 Y0.44 Z1.69 F1830.0
G1 X34.15 Y8.19 Z1.69 F1830.0
G1 X34.22 Y8.35 Z1.69 F1830.0
G1 X34.39 Y8.53 Z1.69 F1830.0
G1 X34.55 Y8.59 Z1.69 F1830.0
G1 X42.45 Y8.44 Z1.69 F1830.0
G1 X42.61 Y8.5 Z1.69 F1830.0
G1 X42.78 Y8.68 Z1.69 F1830.0
G1 X42.9 Y8.66 Z1.69 F1830.0
G1 X43.47 Y7.7 Z1.69 F1830.0
G1 X43.52 Y7.71 Z1.69 F1830.0
G1 X43.52 Y18.63 Z1.69 F1830.0
G1 X43.47 Y18.81 Z1.69 F1830.0
G1 X43.28 Y19.22 Z1.69 F1830.0
G1 X43.15 Y19.31 Z1.69 F1830.0
G1 X39.92 Y19.31 Z1.69 F1830.0
G1 X39.73 Y19.27 Z1.69 F1830.0
G1 X34.39 Y17.33 Z1.69 F1830.0
G1 X34.24 Y17.23 Z1.69 F1830.0
G1 X34.06 Y17.05 Z1.69 F1830.0
G1 X34.0 Y16.89 Z1.69 F1830.0
G1 X34.15 Y8.99 Z1.69 F1830.0
G1 X34.08 Y8.83 Z1.69 F1830.0
G1 X33.91 Y8.66 Z1.69 F1830.0
G1 X33.75 Y8.59 Z1.69 F1830.0
G1 X26.0 Y8.59 Z1.69 F1830.0
G1 X25.84 Y8.53 Z1.69 F1830.0
G1 X25.67 Y8.35 Z1.69 F1830.0
G1 X25.6 Y8.19 Z1.69 F1830.0
G1 X25.6 Y0.44 Z1.69 F1830.0
G1 X25.54 Y0.28 Z1.69 F1830.0
G1 X25.36 Y0.11 Z1.69 F1830.0
G1 X25.2 Y0.04 Z1.69 F1830.0
G1 X19.0 Y0.1 Z1.69 F1830.0
G1 X18.9 Y0.0 Z1.69 F1830.0
G1 X18.9 Y-1.52 Z1.69 F1830.0
G1 X18.84 Y-1.68 Z1.69 F1830.0
G1 X16.39 Y-4.13 Z1.69 F1830.0
G1 X16.34 Y-4.29 Z1.69 F1830.0
G1 X17.04 Y-8.11 Z1.69 F1830.0
G1 X16.99 Y-8.27 Z1.69 F1830.0
G1 X16.81 Y-8.44 Z1.69 F1830.0
G1 X16.65 Y-8.51 Z1.69 F1830.0
G1 X8.91 Y-8.51 Z1.69 F1830.0
G1 X8.74 Y-8.57 Z1.69 F1830.0
G1 X8.57 Y-8.74 Z1.69 F1830.0
G1 X8.51 Y-8.91 Z1.69 F1830.0
G1 X8.51 Y-16.65 Z1.69 F1830.0
G1 X8.44 Y-16.81 Z1.69 F1830.0
G1 X8.27 Y-16.99 Z1.69 F1830.0
G1 X8.1 Y-17.05 Z1.69 F1830.0
G1 X0.36 Y-17.05 Z1.69 F1830.0
G1 X0.2 Y-17.12 Z1.69 F1830.0
G1 X0.02 Y-17.29 Z1.69 F1830.0
G1 X0.05 Y-17.39 Z1.69 F1830.0
G1 X4.54 Y-18.68 Z1.69 F1830.0
G1 X4.72 Y-18.7 Z1.69 F1830.0
G1 X6.24 Y-18.7 Z1.69 F1830.0
G1 X6.42 Y-18.76 Z1.69 F1830.0
G1 X7.12 Y-19.25 Z1.69 F1830.0
G1 X7.1 Y-19.31 Z1.69 F1830.0
G1 X-8.1 Y-19.31 Z1.69 F1830.0
G1 X-8.21 Y-19.21 Z1.69 F1830.0
G1 X-8.57 Y-17.45 Z1.69 F1830.0
G1 X-8.53 Y-17.29 Z1.69 F1830.0
G1 X-8.35 Y-17.12 Z1.69 F1830.0
G1 X-8.19 Y-17.05 Z1.69 F1830.0
G1 X-0.44 Y-17.05 Z1.69 F1830.0
G1 X-0.28 Y-16.99 Z1.69 F1830.0
G1 X-0.11 Y-16.81 Z1.69 F1830.0
G1 X-0.04 Y-16.65 Z1.69 F1830.0
G1 X-0.04 Y-8.91 Z1.69 F1830.0
G1 X0.02 Y-8.74 Z1.69 F1830.0
G1 X0.2 Y-8.57 Z1.69 F1830.0
G1 X0.36 Y-8.51 Z1.69 F1830.0
G1 X8.1 Y-8.51 Z1.69 F1830.0
G1 X8.27 Y-8.44 Z1.69 F1830.0
G1 X8.44 Y-8.27 Z1.69 F1830.0
G1 X8.51 Y-8.1 Z1.69 F1830.0
G1 X8.51 Y-0.36 Z1.69 F1830.0
G1 X8.57 Y-0.2 Z1.69 F1830.0
G1 X8.74 Y-0.02 Z1.69 F1830.0
G1 X8.89 Y0.1 Z1.69 F1830.0
G1 X10.43 Y1.06 Z1.69 F1830.0
G1 X10.52 Y1.02 Z1.69 F1830.0
G1 X10.52 Y-1.36 Z1.69 F1830.0
G1 X10.56 Y-1.54 Z1.69 F1830.0
G1 X10.76 Y-1.94 Z1.69 F1830.0
G1 X10.87 Y-2.09 Z1.69 F1830.0
G1 X12.87 Y-4.09 Z1.69 F1830.0
G1 X13.03 Y-4.16 Z1.69 F1830.0
G1 X15.37 Y-4.19 Z1.69 F1830.0
G1 X15.45 Y-4.1 Z1.69 F1830.0
M103
G1 X13.62 Y4.1 Z1.69 F3300.0
G1 X13.69 Y4.19 Z1.69 F3300.0
M101
G1 X16.07 Y4.19 Z1.69 F1830.0
G1 X16.25 Y4.15 Z1.69 F1830.0
G1 X16.65 Y3.95 Z1.69 F1830.0
G1 X16.8 Y3.84 Z1.69 F1830.0
G1 X18.8 Y1.84 Z1.69 F1830.0
G1 X18.84 Y1.86 Z1.69 F1830.0
G1 X17.08 Y8.19 Z1.69 F1830.0
G1 X17.12 Y8.35 Z1.69 F1830.0
G1 X17.29 Y8.53 Z1.69 F1830.0
G1 X17.45 Y8.59 Z1.69 F1830.0
G1 X25.2 Y8.59 Z1.69 F1830.0
G1 X25.36 Y8.66 Z1.69 F1830.0
G1 X25.54 Y8.83 Z1.69 F1830.0
G1 X25.6 Y8.99 Z1.69 F1830.0
G1 X25.6 Y16.74 Z1.69 F1830.0
G1 X25.67 Y16.9 Z1.69 F1830.0
G1 X25.84 Y17.07 Z1.69 F1830.0
G1 X26.0 Y17.16 Z1.69 F1830.0
G1 X32.04 Y18.68 Z1.69 F1830.0
G1 X32.22 Y18.7 Z1.69 F1830.0
G1 X37.16 Y18.7 Z1.69 F1830.0
G1 X37.34 Y18.76 Z1.69 F1830.0
G1 X38.03 Y19.25 Z1.69 F1830.0
G1 X38.02 Y19.31 Z1.69 F1830.0
G1 X26.38 Y19.31 Z1.69 F1830.0
G1 X26.25 Y19.22 Z1.69 F1830.0
G1 X25.64 Y17.53 Z1.69 F1830.0
G1 X25.54 Y17.38 Z1.69 F1830.0
G1 X25.36 Y17.2 Z1.69 F1830.0
G1 X25.3 Y17.23 Z1.69 F1830.0
G1 X25.29 Y19.21 Z1.69 F1830.0
G1 X25.2 Y19.31 Z1.69 F1830.0
G1 X18.55 Y19.31 Z1.69 F1830.0
G1 X18.4 Y19.23 Z1.69 F1830.0
G1 X17.26 Y17.37 Z1.69 F1830.0
G1 X17.14 Y17.23 Z1.69 F1830.0
G1 X16.97 Y17.05 Z1.69 F1830.0
G1 X16.9 Y16.89 Z1.69 F1830.0
G1 X17.05 Y8.99 Z1.69 F1830.0
G1 X16.99 Y8.83 Z1.69 F1830.0
G1 X16.81 Y8.66 Z1.69 F1830.0
G1 X16.65 Y8.59 Z1.69 F1830.0
G1 X9.33 Y8.5 Z1.69 F1830.0
G1 X9.14 Y8.52 Z1.69 F1830.0
G1 X8.9 Y8.57 Z1.69 F1830.0
G1 X8.74 Y8.53 Z1.69 F1830.0
G1 X8.57 Y8.35 Z1.69 F1830.0
G1 X8.53 Y8.19 Z1.69 F1830.0
G1 X8.6 Y7.92 Z1.69 F1830.0
G1 X8.62 Y7.73 Z1.69 F1830.0
G1 X8.51 Y0.44 Z1.69 F1830.0
G1 X8.44 Y0.28 Z1.69 F1830.0
G1 X8.27 Y0.11 Z1.69 F1830.0
G1 X8.1 Y0.04 Z1.69 F1830.0
G1 X0.36 Y0.04 Z1.69 F1830.0
G1 X0.2 Y-0.02 Z1.69 F1830.0
G1 X0.02 Y-0.2 Z1.69 F1830.0
G1 X-0.04 Y-0.36 Z1.69 F1830.0
G1 X-0.04 Y-8.1 Z1.69 F1830.0
G1 X-0.11 Y-8.27 Z1.69 F1830.0
G1 X-0.28 Y-8.44 Z1.69 F1830.0
G1 X-0.44 Y-8.51 Z1.69 F1830.0
G1 X-8.19 Y-8.51 Z1.69 F1830.0
G1 X-8.35 Y-8.57 Z1.69 F1830.0
G1 X-8.53 Y-8.74 Z1.69 F1830.0
G1 X-8.59 Y-8.91 Z1.69 F1830.0
G1 X-8.59 Y-16.65 Z1.69 F1830.0
G1 X-8.66 Y-16.81 Z1.69 F1830.0
G1 X-8.83 Y-16.99 Z1.69 F1830.0
G1 X-8.9 Y-17.15 Z1.69 F1830.0
G1 X-9.04 Y-19.21 Z1.69 F1830.0
G1 X-9.14 Y-19.31 Z1.69 F1830.0
G1 X-19.21 Y-19.31 Z1.69 F1830.0
G1 X-19.33 Y-19.21 Z1.69 F1830.0
G1 X-19.47 Y-18.73 Z1.69 F1830.0
G1 X-19.5 Y-18.55 Z1.69 F1830.0
G1 X-19.5 Y-17.88 Z1.69 F1830.0
G1 X-19.41 Y-17.76 Z1.69 F1830.0
G1 X-17.39 Y-17.23 Z1.69 F1830.0
G1 X-17.23 Y-17.14 Z1.69 F1830.0
G1 X-17.05 Y-16.97 Z1.69 F1830.0
G1 X-17.08 Y-16.9 Z1.69 F1830.0
G1 X-19.4 Y-16.93 Z1.69 F1830.0
G1 X-19.5 Y-16.84 Z1.69 F1830.0
G1 X-19.5 Y-10.19 Z1.69 F1830.0
G1 X-19.42 Y-10.04 Z1.69 F1830.0
G1 X-17.37 Y-8.71 Z1.69 F1830.0
G1 X-17.23 Y-8.59 Z1.69 F1830.0
G1 X-17.05 Y-8.42 Z1.69 F1830.0
G1 X-16.89 Y-8.35 Z1.69 F1830.0
G1 X-8.99 Y-8.5 Z1.69 F1830.0
G1 X-8.83 Y-8.44 Z1.69 F1830.0
G1 X-8.66 Y-8.27 Z1.69 F1830.0
G1 X-8.59 Y-8.1 Z1.69 F1830.0
G1 X-8.59 Y-0.36 Z1.69 F1830.0
G1 X-8.53 Y-0.2 Z1.69 F1830.0
G1 X-8.35 Y-0.02 Z1.69 F1830.0
G1 X-8.19 Y0.04 Z1.69 F1830.0
G1 X-0.44 Y0.04 Z1.69 F1830.0
G1 X-0.28 Y0.11 Z1.69 F1830.0
G1 X-0.11 Y0.28 Z1.69 F1830.0
G1 X-0.04 Y0.44 Z1.69 F1830.0
G1 X-0.04 Y8.19 Z1.69 F1830.0
G1 X0.02 Y8.35 Z1.69 F1830.0
G1 X0.2 Y8.53 Z1.69 F1830.0
G1 X0.36 Y8.59 Z1.69 F1830.0
G1 X8.1 Y8.59 Z1.69 F1830.0
G1 X8.27 Y8.66 Z1.69 F1830.0
G1 X8.44 Y8.83 Z1.69 F1830.0
G1 X8.51 Y8.99 Z1.69 F1830.0
G1 X8.51 Y16.74 Z1.69 F1830.0
G1 X8.57 Y16.9 Z1.69 F1830.0
G1 X8.74 Y17.07 Z1.69 F1830.0
G1 X8.9 Y17.16 Z1.69 F1830.0
G1 X14.94 Y18.68 Z1.69 F1830.0
G1 X15.13 Y18.7 Z1.69 F1830.0
G1 X16.65 Y18.7 Z1.69 F1830.0
G1 X16.82 Y18.76 Z1.69 F1830.0
G1 X17.52 Y19.25 Z1.69 F1830.0
G1 X17.5 Y19.31 Z1.69 F1830.0
G1 X9.28 Y19.31 Z1.69 F1830.0
G1 X9.15 Y19.22 Z1.69 F1830.0
G1 X8.54 Y17.53 Z1.69 F1830.0
G1 X8.44 Y17.38 Z1.69 F1830.0
G1 X8.27 Y17.2 Z1.69 F1830.0
G1 X8.2 Y17.23 Z1.69 F1830.0
G1 X8.19 Y19.21 Z1.69 F1830.0
G1 X8.1 Y19.31 Z1.69 F1830.0
G1 X4.87 Y19.31 Z1.69 F1830.0
G1 X4.69 Y19.27 Z1.69 F1830.0
G1 X0.2 Y17.33 Z1.69 F1830.0
G1 X0.04 Y17.23 Z1.69 F1830.0
G1 X-0.13 Y17.05 Z1.69 F1830.0
G1 X-0.19 Y16.89 Z1.69 F1830.0
G1 X-0.04 Y8.99 Z1.69 F1830.0
G1 X-0.11 Y8.83 Z1.69 F1830.0
G1 X-0.28 Y8.66 Z1.69 F1830.0
G1 X-0.44 Y8.59 Z1.69 F1830.0
G1 X-8.19 Y8.59 Z1.69 F1830.0
G1 X-8.35 Y8.53 Z1.69 F1830.0
G1 X-8.53 Y8.35 Z1.69 F1830.0
G1 X-8.59 Y8.19 Z1.69 F1830.0
G1 X-8.59 Y0.44 Z1.69 F1830.0
G1 X-8.66 Y0.28 Z1.69 F1830.0
G1 X-8.83 Y0.11 Z1.69 F1830.0
G1 X-8.99 Y0.04 Z1.69 F1830.0
G1 X-16.74 Y0.04 Z1.69 F1830.0
G1 X-16.9 Y-0.02 Z1.69 F1830.0
G1 X-17.07 Y-0.2 Z1.69 F1830.0
G1 X-17.18 Y-0.35 Z1.69 F1830.0
G1 X-19.45 Y-4.88 Z1.69 F1830.0
G1 X-19.5 Y-5.06 Z1.69 F1830.0
G1 X-19.5 Y-9.14 Z1.69 F1830.0
G1 X-19.53 Y-9.15 Z1.69 F1830.0
M103
G1 X-22.77 Y0.19 Z1.69 F3300.0
G1 X-22.73 Y0.21 Z1.69 F3300.0
M101
G1 X-19.88 Y-2.65 Z1.69 F1830.0
G1 X-19.76 Y-2.79 Z1.69 F1830.0
G1 X-19.54 Y-3.17 Z1.69 F1830.0
G1 X-19.5 Y-3.35 Z1.69 F1830.0
G1 X-19.5 Y-4.01 Z1.69 F1830.0
G1 X-19.45 Y-4.03 Z1.69 F1830.0
G1 X-17.49 Y-0.04 Z1.69 F1830.0
G1 X-17.38 Y0.11 Z1.69 F1830.0
G1 X-17.2 Y0.28 Z1.69 F1830.0
G1 X-17.14 Y0.44 Z1.69 F1830.0
G1 X-17.14 Y8.19 Z1.69 F1830.0
G1 X-17.07 Y8.35 Z1.69 F1830.0
G1 X-16.9 Y8.53 Z1.69 F1830.0
G1 X-16.74 Y8.59 Z1.69 F1830.0
G1 X-8.99 Y8.59 Z1.69 F1830.0
G1 X-8.83 Y8.66 Z1.69 F1830.0
G1 X-8.66 Y8.83 Z1.69 F1830.0
G1 X-8.59 Y8.99 Z1.69 F1830.0
G1 X-8.59 Y16.74 Z1.69 F1830.0
G1 X-8.53 Y16.9 Z1.69 F1830.0
G1 X-8.35 Y17.07 Z1.69 F1830.0
G1 X-8.19 Y17.16 Z1.69 F1830.0
G1 X-2.16 Y18.68 Z1.69 F1830.0
G1 X-1.97 Y18.7 Z1.69 F1830.0
G1 X2.97 Y18.7 Z1.69 F1830.0
G1 X3.14 Y18.76 Z1.69 F1830.0
G1 X3.84 Y19.25 Z1.69 F1830.0
G1 X3.82 Y19.31 Z1.69 F1830.0
G1 X-7.81 Y19.31 Z1.69 F1830.0
G1 X-7.94 Y19.22 Z1.69 F1830.0
G1 X-8.56 Y17.53 Z1.69 F1830.0
G1 X-8.66 Y17.38 Z1.69 F1830.0
G1 X-8.83 Y17.2 Z1.69 F1830.0
G1 X-8.9 Y17.23 Z1.69 F1830.0
G1 X-8.9 Y19.21 Z1.69 F1830.0
G1 X-9.0 Y19.31 Z1.69 F1830.0
G1 X-15.65 Y19.31 Z1.69 F1830.0
G1 X-15.79 Y19.23 Z1.69 F1830.0
G1 X-16.94 Y17.37 Z1.69 F1830.0
G1 X-17.05 Y17.23 Z1.69 F1830.0
G1 X-17.23 Y17.05 Z1.69 F1830.0
G1 X-17.29 Y16.89 Z1.69 F1830.0
G1 X-17.14 Y8.99 Z1.69 F1830.0
G1 X-17.2 Y8.83 Z1.69 F1830.0
G1 X-17.38 Y8.66 Z1.69 F1830.0
G1 X-17.54 Y8.59 Z1.69 F1830.0
G1 X-25.29 Y8.59 Z1.69 F1830.0
G1 X-25.45 Y8.53 Z1.69 F1830.0
G1 X-25.62 Y8.35 Z1.69 F1830.0
G1 X-25.66 Y8.19 Z1.69 F1830.0
G1 X-23.26 Y0.8 Z1.69 F1830.0
G1 X-23.29 Y0.78 Z1.69 F1830.0
G1 X-31.28 Y8.76 Z1.69 F1830.0
G1 X-31.25 Y8.82 Z1.69 F1830.0
G1 X-26.09 Y8.59 Z1.69 F1830.0
G1 X-25.93 Y8.66 Z1.69 F1830.0
G1 X-25.75 Y8.83 Z1.69 F1830.0
G1 X-25.69 Y8.99 Z1.69 F1830.0
G1 X-25.69 Y16.74 Z1.69 F1830.0
G1 X-25.62 Y16.9 Z1.69 F1830.0
G1 X-25.45 Y17.07 Z1.69 F1830.0
G1 X-25.29 Y17.16 Z1.69 F1830.0
G1 X-19.25 Y18.68 Z1.69 F1830.0
G1 X-19.07 Y18.7 Z1.69 F1830.0
G1 X-17.55 Y18.7 Z1.69 F1830.0
G1 X-17.37 Y18.76 Z1.69 F1830.0
G1 X-16.67 Y19.25 Z1.69 F1830.0
G1 X-16.69 Y19.31 Z1.69 F1830.0
G1 X-24.91 Y19.31 Z1.69 F1830.0
G1 X-25.04 Y19.22 Z1.69 F1830.0
G1 X-25.65 Y17.53 Z1.69 F1830.0
G1 X-25.75 Y17.38 Z1.69 F1830.0
G1 X-25.93 Y17.2 Z1.69 F1830.0
G1 X-25.99 Y17.23 Z1.69 F1830.0
G1 X-26.0 Y19.21 Z1.69 F1830.0
G1 X-26.09 Y19.31 Z1.69 F1830.0
G1 X-33.6 Y19.31 Z1.69 F1830.0
G1 X-33.71 Y19.21 Z1.69 F1830.0
G1 X-34.06 Y17.39 Z1.69 F1830.0
G1 X-34.15 Y17.23 Z1.69 F1830.0
G1 X-34.32 Y17.05 Z1.69 F1830.0
G1 X-34.36 Y16.9 Z1.69 F1830.0
G1 X-31.8 Y9.35 Z1.69 F1830.0
G1 X-31.84 Y9.32 Z1.69 F1830.0
G1 X-39.83 Y17.31 Z1.69 F1830.0
G1 X-39.8 Y17.4 Z1.69 F1830.0
G1 X-35.49 Y18.67 Z1.69 F1830.0
G1 X-35.32 Y18.76 Z1.69 F1830.0
G1 X-34.63 Y19.25 Z1.69 F1830.0
G1 X-34.64 Y19.31 Z1.69 F1830.0
G1 X-40.44 Y19.31 Z1.69 F1830.0
G1 X-40.52 Y19.21 Z1.69 F1830.0
G1 X-40.34 Y17.9 Z1.69 F1830.0
G1 X-40.39 Y17.87 Z1.69 F1830.0
G1 X-41.54 Y19.02 Z1.69 F1830.0
G1 X-41.54 Y19.15 Z1.69 F1830.0
G1 X-41.45 Y19.24 Z1.69 F1830.0
G1 X-41.4 Y19.39 Z1.72 F1830.0
M103
G1 X-41.48 Y20.17 Z2.03 F3300.0
G1 X-41.58 Y20.26 Z2.06 F3300.0
M101
G1 X-44.05 Y20.26 Z2.06 F1830.0
G1 X-44.07 Y20.24 Z2.06 F1830.0
G1 X-44.07 Y20.21 Z2.06 F1830.0
G1 X-20.51 Y-3.35 Z2.06 F1830.0
G1 X-20.45 Y-3.51 Z2.06 F1830.0
G1 X-20.45 Y-20.16 Z2.06 F1830.0
G1 X-20.35 Y-20.26 Z2.06 F1830.0
G1 X44.37 Y-20.26 Z2.06 F1830.0
G1 X44.47 Y-20.16 Z2.06 F1830.0
G1 X44.47 Y20.16 Z2.06 F1830.0
G1 X44.37 Y20.26 Z2.06 F1830.0
G1 X-41.19 Y20.26 Z2.06 F1830.0
G1 X-41.2 Y20.22 Z2.06 F1830.0
M103
G1 X11.44 Y1.45 Z2.06 F3300.0
G1 X11.6 Y1.48 Z2.06 F3300.0
M101
G1 X13.3 Y3.18 Z2.06 F1830.0
G1 X13.46 Y3.24 Z2.06 F1830.0
G1 X15.96 Y3.24 Z2.06 F1830.0
G1 X16.12 Y3.18 Z2.06 F1830.0
G1 X17.89 Y1.41 Z2.06 F1830.0
G1 X17.95 Y1.25 Z2.06 F1830.0
G1 X17.95 Y-1.25 Z2.06 F1830.0
G1 X17.89 Y-1.41 Z2.06 F1830.0
G1 X16.12 Y-3.18 Z2.06 F1830.0
G1 X15.96 Y-3.24 Z2.06 F1830.0
G1 X13.46 Y-3.24 Z2.06 F1830.0
G1 X13.3 Y-3.18 Z2.06 F1830.0
G1 X11.53 Y-1.41 Z2.06 F1830.0
G1 X11.46 Y-1.25 Z2.06 F1830.0
G1 X11.46 Y1.15 Z2.06 F1830.0
G1 X11.39 Y1.31 Z2.06 F1830.0
M103
G1 X11.09 Y1.56 Z2.06 F3300.0
G1 X11.09 Y1.69 Z2.06 F3300.0
M101
G1 X13.08 Y3.69 Z2.06 F1830.0
G1 X13.25 Y3.76 Z2.06 F1830.0
G1 X16.17 Y3.76 Z2.06 F1830.0
G1 X16.33 Y3.69 Z2.06 F1830.0
G1 X18.4 Y1.63 Z2.06 F1830.0
G1 X18.47 Y1.46 Z2.06 F1830.0
G1 X18.47 Y-1.46 Z2.06 F1830.0
G1 X18.4 Y-1.63 Z2.06 F1830.0
G1 X16.33 Y-3.69 Z2.06 F1830.0
G1 X16.17 Y-3.76 Z2.06 F1830.0
G1 X13.25 Y-3.76 Z2.06 F1830.0
G1 X13.08 Y-3.69 Z2.06 F1830.0
G1 X11.02 Y-1.63 Z2.06 F1830.0
G1 X10.95 Y-1.46 Z2.06 F1830.0
G1 X10.95 Y1.36 Z2.06 F1830.0
G1 X10.95 Y1.55 Z2.06 F1830.0
M103
G1 X10.85 Y19.64 Z2.06 F3300.0
G1 X10.76 Y19.74 Z2.06 F3300.0
M101
G1 X-42.34 Y19.74 Z2.06 F1830.0
G1 X-42.47 Y19.65 Z2.06 F1830.0
G1 X-42.53 Y19.52 Z2.06 F1830.0
G1 X-42.5 Y19.36 Z2.06 F1830.0
G1 X-20.0 Y-3.13 Z2.06 F1830.0
G1 X-19.93 Y-3.3 Z2.06 F1830.0
G1 X-19.93 Y-19.64 Z2.06 F1830.0
G1 X-19.84 Y-19.74 Z2.06 F1830.0
G1 X43.85 Y-19.74 Z2.06 F1830.0
G1 X43.95 Y-19.64 Z2.06 F1830.0
G1 X43.95 Y19.64 Z2.06 F1830.0
G1 X43.85 Y19.74 Z2.06 F1830.0
G1 X11.14 Y19.74 Z2.06 F1830.0
G1 X11.07 Y19.65 Z2.06 F1830.0
M103
G1 X15.44 Y4.29 Z2.06 F3300.0
G1 X15.37 Y4.19 Z2.06 F3300.0
M101
G1 X13.03 Y4.16 Z2.06 F1830.0
G1 X12.87 Y4.09 Z2.06 F1830.0
G1 X10.87 Y2.09 Z2.06 F1830.0
G1 X10.76 Y1.94 Z2.06 F1830.0
G1 X10.56 Y1.54 Z2.06 F1830.0
G1 X10.52 Y1.36 Z2.06 F1830.0
G1 X10.52 Y0.69 Z2.06 F1830.0
G1 X10.43 Y0.57 Z2.06 F1830.0
G1 X8.9 Y0.07 Z2.06 F1830.0
G1 X8.74 Y0.11 Z2.06 F1830.0
G1 X8.57 Y0.28 Z2.06 F1830.0
G1 X8.51 Y0.44 Z2.06 F1830.0
G1 X8.51 Y8.19 Z2.06 F1830.0
G1 X8.44 Y8.35 Z2.06 F1830.0
G1 X8.27 Y8.53 Z2.06 F1830.0
G1 X8.1 Y8.59 Z2.06 F1830.0
G1 X0.36 Y8.59 Z2.06 F1830.0
G1 X0.2 Y8.66 Z2.06 F1830.0
G1 X0.02 Y8.83 Z2.06 F1830.0
G1 X-0.04 Y8.99 Z2.06 F1830.0
G1 X-0.04 Y16.74 Z2.06 F1830.0
G1 X-0.11 Y16.9 Z2.06 F1830.0
G1 X-0.28 Y17.07 Z2.06 F1830.0
G1 X-0.32 Y17.23 Z2.06 F1830.0
G1 X0.33 Y19.21 Z2.06 F1830.0
G1 X0.26 Y19.31 Z2.06 F1830.0
G1 X-2.12 Y19.31 Z2.06 F1830.0
G1 X-2.29 Y19.25 Z2.06 F1830.0
G1 X-5.24 Y17.34 Z2.06 F1830.0
